; generated by PrusaSlicer 2.3.0+linux-x64 on 2021-04-18 at 20:47:55 UTC

; 

; external perimeters extrusion width = 0.45mm
; perimeters extrusion width = 0.45mm
; infill extrusion width = 0.45mm
; solid infill extrusion width = 0.45mm
; top infill extrusion width = 0.40mm
; first layer extrusion width = 0.42mm

M201 X500 Y500 Z100 E5000 ; sets maximum accelerations, mm/sec^2
M203 X500 Y500 Z10 E60 ; sets maximum feedrates, mm/sec
M204 P500 R1000 T500 ; sets acceleration (P, T) and retract acceleration (R), mm/sec^2
M205 X8.00 Y8.00 Z0.40 E5.00 ; sets the jerk limits, mm/sec
M205 S0 T0 ; sets the minimum extruding and travel feed rate, mm/sec
M107
;TYPE:Custom
G90 ; use absolute coordinates
M83 ; extruder relative mode
M104 S220 ; set extruder temp
M140 S60 ; set bed temp
M190 S60 ; wait for bed temp
M109 S220 ; wait for extruder temp
G28 ; home all
G29 ; Auto bed-level (BL-Touch)
G92 E0 ; Reset Extruder
G1 Z2 F240
G1 X2 Y10 F3000
G1 Z0.28 F240
G92 E0
G1 Y190 E15 F1500 ; intro line
G1 X2.3 F5000
G92 E0
G1 Y10 E15 F1200 ; intro line
G92 E0
G21 ; set units to millimeters
G90 ; use absolute coordinates
M83 ; use relative distances for extrusion
; Filament gcode
;LAYER_CHANGE
;Z:0.2
;HEIGHT:0.2
;BEFORE_LAYER_CHANGE
G92 E0
;0.2


G1 E-5.00000 F3600.000
G1 Z0.200 F18000.000
;AFTER_LAYER_CHANGE
;0.2
G1 X50.127 Y97.664
G1 E5.00000 F2400.000
;TYPE:Skirt
;WIDTH:0.42
G1 X169.436 Y97.623 E3.55381
G1 X170.335 Y97.801 E0.02728
G1 X171.099 Y98.305 E0.02728
G1 X171.616 Y99.062 E0.02728
G1 X171.809 Y99.957 E0.02728
G1 X171.801 Y120.205 E0.60313
G1 X171.612 Y120.948 E0.02282
G1 X171.195 Y121.595 E0.02293
G1 X170.596 Y122.073 E0.02282
G1 X169.873 Y122.336 E0.02293
G1 X50.530 Y122.377 E3.55483
G1 X49.733 Y122.226 E0.02416
G1 X49.036 Y121.818 E0.02405
G1 X48.514 Y121.197 E0.02416
G1 X48.232 Y120.440 E0.02405
G1 X48.199 Y99.802 E0.61474
G1 X48.386 Y99.056 E0.02293
G1 X48.802 Y98.408 E0.02293
G1 X49.404 Y97.927 E0.02293
G1 X50.071 Y97.685 E0.02114
G1 E-3.50000 F3600.000
;WIPE_START
G1 F14400.000
G1 X56.071 Y97.681 E-1.42500
;WIPE_END
G1 E-0.07500 F3600.000
G1 X51.590 Y113.687 F18000.000
G1 E5.00000 F2400.000
;TYPE:Perimeter
G1 X168.410 Y113.687 E3.47966
G1 X168.410 Y114.313 E0.01864
G1 X166.110 Y114.313 E0.06850
G1 X166.110 Y118.687 E0.13029
G1 X168.410 Y118.687 E0.06850
G1 X168.410 Y119.313 E0.01864
G1 X166.844 Y119.313 E0.04664
G1 X166.375 Y119.281 E0.01399
G1 X165.938 Y119.191 E0.01330
G1 X165.495 Y119.036 E0.01399
G1 X160.004 Y116.683 E0.17794
G1 X159.429 Y116.481 E0.01814
G1 X158.810 Y116.354 E0.01883
G1 X158.202 Y116.313 E0.01814
G1 X61.798 Y116.313 E2.87156
G1 X61.190 Y116.354 E0.01814
G1 X60.571 Y116.481 E0.01883
G1 X59.996 Y116.683 E0.01814
G1 X54.505 Y119.036 E0.17794
G1 X54.062 Y119.191 E0.01399
G1 X53.625 Y119.281 E0.01330
G1 X53.156 Y119.313 E0.01399
G1 X51.590 Y119.313 E0.04664
G1 X51.590 Y118.687 E0.01864
G1 X53.890 Y118.687 E0.06850
G1 X53.890 Y114.313 E0.13029
G1 X51.590 Y114.313 E0.06850
G1 X51.590 Y113.747 E0.01685
G1 E-3.50000 F3600.000
;WIPE_START
G1 F14400.000
G1 X57.590 Y113.744 E-1.42500
;WIPE_END
G1 E-0.07500 F3600.000
G1 X166.487 Y114.690 F18000.000
G1 E5.00000 F2400.000
;TYPE:External perimeter
G1 X166.487 Y118.310 E0.10783
G1 X168.787 Y118.310 E0.06850
G1 X168.787 Y119.690 E0.04111
G1 X166.831 Y119.690 E0.05825
G1 X166.325 Y119.656 E0.01513
G1 X165.837 Y119.556 E0.01482
G1 X165.358 Y119.388 E0.01513
G1 X159.867 Y117.034 E0.17794
G1 X159.328 Y116.845 E0.01700
G1 X158.759 Y116.728 E0.01732
G1 X158.189 Y116.690 E0.01700
G1 X61.811 Y116.690 E2.87080
G1 X61.241 Y116.728 E0.01700
G1 X60.672 Y116.845 E0.01732
G1 X60.133 Y117.034 E0.01700
G1 X54.642 Y119.388 E0.17794
G1 X54.163 Y119.556 E0.01513
G1 X53.675 Y119.656 E0.01482
G1 X53.169 Y119.690 E0.01513
G1 X51.213 Y119.690 E0.05825
G1 X51.213 Y118.310 E0.04111
G1 X53.513 Y118.310 E0.06850
G1 X53.513 Y114.690 E0.10783
G1 X51.213 Y114.690 E0.06850
G1 X51.213 Y113.310 E0.04111
G1 X168.787 Y113.310 E3.50213
G1 X168.787 Y114.690 E0.04111
G1 X166.547 Y114.690 E0.06671
G1 X166.094 Y114.762 F18000.000
G1 X165.997 Y114.752
;TYPE:Solid infill
;WIDTH:0.420359
G1 F2400.000
G1 X165.215 Y113.970 E0.03297
G1 X164.681 Y113.970 E0.01591
G1 X165.827 Y115.116 E0.04832
G1 X165.827 Y115.650 E0.01591
G1 X164.148 Y113.970 E0.07083
G1 X163.614 Y113.970 E0.01591
G1 X165.827 Y116.183 E0.09333
G1 X165.827 Y116.717 E0.01591
G1 X163.080 Y113.970 E0.11584
G1 X162.546 Y113.970 E0.01591
G1 X165.827 Y117.251 E0.13835
G1 X165.827 Y117.785 E0.01591
G1 X162.013 Y113.970 E0.16085
G1 X161.479 Y113.970 E0.01591
G1 X165.827 Y118.319 E0.18336
G1 X165.827 Y118.530 E0.00632
G1 X165.705 Y118.515 E0.00367
G1 X165.674 Y118.699 E0.00557
G1 X160.945 Y113.970 E0.19940
G1 X160.411 Y113.970 E0.01591
G1 X164.926 Y118.484 E0.19035
G1 X163.992 Y118.084 E0.03030
G1 X159.877 Y113.970 E0.17347
G1 X159.344 Y113.970 E0.01591
G1 X163.058 Y117.684 E0.15659
G1 X162.123 Y117.283 E0.03030
G1 X158.810 Y113.970 E0.13971
G1 X158.276 Y113.970 E0.01591
G1 X161.189 Y116.883 E0.12283
G1 X160.255 Y116.483 E0.03030
G1 X157.742 Y113.970 E0.10595
G1 X157.209 Y113.970 E0.01591
G1 X159.432 Y116.193 E0.09373
G1 X158.773 Y116.068 E0.01999
G1 X156.675 Y113.970 E0.08847
G1 X156.141 Y113.970 E0.01591
G1 X158.201 Y116.030 E0.08687
G1 X157.667 Y116.030 E0.01591
G1 X155.607 Y113.970 E0.08687
G1 X155.073 Y113.970 E0.01591
G1 X157.134 Y116.030 E0.08687
G1 X156.600 Y116.030 E0.01591
G1 X154.540 Y113.970 E0.08687
G1 X154.006 Y113.970 E0.01591
G1 X156.066 Y116.030 E0.08687
G1 X155.532 Y116.030 E0.01591
G1 X153.472 Y113.970 E0.08687
G1 X152.938 Y113.970 E0.01591
G1 X154.999 Y116.030 E0.08687
G1 X154.465 Y116.030 E0.01591
G1 X152.405 Y113.970 E0.08687
G1 X151.871 Y113.970 E0.01591
G1 X153.931 Y116.030 E0.08687
G1 X153.397 Y116.030 E0.01591
G1 X151.337 Y113.970 E0.08687
G1 X150.803 Y113.970 E0.01591
G1 X152.863 Y116.030 E0.08687
G1 X152.330 Y116.030 E0.01591
G1 X150.269 Y113.970 E0.08687
G1 X149.736 Y113.970 E0.01591
G1 X151.796 Y116.030 E0.08687
G1 X151.262 Y116.030 E0.01591
G1 X149.202 Y113.970 E0.08687
G1 X148.668 Y113.970 E0.01591
G1 X150.728 Y116.030 E0.08687
G1 X150.195 Y116.030 E0.01591
G1 X148.134 Y113.970 E0.08687
G1 X147.600 Y113.970 E0.01591
G1 X149.661 Y116.030 E0.08687
G1 X149.127 Y116.030 E0.01591
G1 X147.067 Y113.970 E0.08687
G1 X146.533 Y113.970 E0.01591
G1 X148.593 Y116.030 E0.08687
G1 X148.059 Y116.030 E0.01591
G1 X145.999 Y113.970 E0.08687
G1 X145.465 Y113.970 E0.01591
G1 X147.526 Y116.030 E0.08687
G1 X146.992 Y116.030 E0.01591
G1 X144.932 Y113.970 E0.08687
G1 X144.398 Y113.970 E0.01591
G1 X146.458 Y116.030 E0.08687
G1 X145.924 Y116.030 E0.01591
G1 X143.864 Y113.970 E0.08687
G1 X143.330 Y113.970 E0.01591
G1 X145.391 Y116.030 E0.08687
G1 X144.857 Y116.030 E0.01591
G1 X142.796 Y113.970 E0.08687
G1 X142.263 Y113.970 E0.01591
G1 X144.323 Y116.030 E0.08687
G1 X143.789 Y116.030 E0.01591
G1 X141.729 Y113.970 E0.08687
G1 X141.195 Y113.970 E0.01591
G1 X143.255 Y116.030 E0.08687
G1 X142.722 Y116.030 E0.01591
G1 X140.661 Y113.970 E0.08687
G1 X140.128 Y113.970 E0.01591
G1 X142.188 Y116.030 E0.08687
G1 X141.654 Y116.030 E0.01591
G1 X139.594 Y113.970 E0.08687
G1 X139.060 Y113.970 E0.01591
G1 X141.120 Y116.030 E0.08687
G1 X140.586 Y116.030 E0.01591
G1 X138.526 Y113.970 E0.08687
G1 X137.992 Y113.970 E0.01591
G1 X140.053 Y116.030 E0.08687
G1 X139.519 Y116.030 E0.01591
G1 X137.459 Y113.970 E0.08687
G1 X136.925 Y113.970 E0.01591
G1 X138.985 Y116.030 E0.08687
G1 X138.451 Y116.030 E0.01591
G1 X136.391 Y113.970 E0.08687
G1 X135.857 Y113.970 E0.01591
G1 X137.918 Y116.030 E0.08687
G1 X137.384 Y116.030 E0.01591
G1 X135.324 Y113.970 E0.08687
G1 X134.790 Y113.970 E0.01591
G1 X136.850 Y116.030 E0.08687
G1 X136.316 Y116.030 E0.01591
G1 X134.256 Y113.970 E0.08687
G1 X133.722 Y113.970 E0.01591
G1 X135.782 Y116.030 E0.08687
G1 X135.249 Y116.030 E0.01591
G1 X133.188 Y113.970 E0.08687
G1 X132.655 Y113.970 E0.01591
G1 X134.715 Y116.030 E0.08687
G1 X134.181 Y116.030 E0.01591
G1 X132.121 Y113.970 E0.08687
G1 X131.587 Y113.970 E0.01591
G1 X133.647 Y116.030 E0.08687
G1 X133.114 Y116.030 E0.01591
G1 X131.053 Y113.970 E0.08687
G1 X130.520 Y113.970 E0.01591
G1 X132.580 Y116.030 E0.08687
G1 X132.046 Y116.030 E0.01591
G1 X129.986 Y113.970 E0.08687
G1 X129.452 Y113.970 E0.01591
G1 X131.512 Y116.030 E0.08687
G1 X130.978 Y116.030 E0.01591
G1 X128.918 Y113.970 E0.08687
G1 X128.384 Y113.970 E0.01591
G1 X130.445 Y116.030 E0.08687
G1 X129.911 Y116.030 E0.01591
G1 X127.851 Y113.970 E0.08687
G1 X127.317 Y113.970 E0.01591
G1 X129.377 Y116.030 E0.08687
G1 X128.843 Y116.030 E0.01591
G1 X126.783 Y113.970 E0.08687
G1 X126.249 Y113.970 E0.01591
G1 X128.310 Y116.030 E0.08687
G1 X127.776 Y116.030 E0.01591
G1 X125.716 Y113.970 E0.08687
G1 X125.182 Y113.970 E0.01591
G1 X127.242 Y116.030 E0.08687
G1 X126.708 Y116.030 E0.01591
G1 X124.648 Y113.970 E0.08687
G1 X124.114 Y113.970 E0.01591
G1 X126.174 Y116.030 E0.08687
G1 X125.641 Y116.030 E0.01591
G1 X123.580 Y113.970 E0.08687
G1 X123.047 Y113.970 E0.01591
G1 X125.107 Y116.030 E0.08687
G1 X124.573 Y116.030 E0.01591
G1 X122.513 Y113.970 E0.08687
G1 X121.979 Y113.970 E0.01591
G1 X124.039 Y116.030 E0.08687
G1 X123.506 Y116.030 E0.01591
G1 X121.445 Y113.970 E0.08687
G1 X120.912 Y113.970 E0.01591
G1 X122.972 Y116.030 E0.08687
G1 X122.438 Y116.030 E0.01591
G1 X120.378 Y113.970 E0.08687
G1 X119.844 Y113.970 E0.01591
G1 X121.904 Y116.030 E0.08687
G1 X121.370 Y116.030 E0.01591
G1 X119.310 Y113.970 E0.08687
G1 X118.776 Y113.970 E0.01591
G1 X120.837 Y116.030 E0.08687
G1 X120.303 Y116.030 E0.01591
G1 X118.243 Y113.970 E0.08687
G1 X117.709 Y113.970 E0.01591
G1 X119.769 Y116.030 E0.08687
G1 X119.235 Y116.030 E0.01591
G1 X117.175 Y113.970 E0.08687
G1 X116.641 Y113.970 E0.01591
G1 X118.702 Y116.030 E0.08687
G1 X118.168 Y116.030 E0.01591
G1 X116.108 Y113.970 E0.08687
G1 X115.574 Y113.970 E0.01591
G1 X117.634 Y116.030 E0.08687
G1 X117.100 Y116.030 E0.01591
G1 X115.040 Y113.970 E0.08687
G1 X114.506 Y113.970 E0.01591
G1 X116.566 Y116.030 E0.08687
G1 X116.033 Y116.030 E0.01591
G1 X113.972 Y113.970 E0.08687
G1 X113.439 Y113.970 E0.01591
G1 X115.499 Y116.030 E0.08687
G1 X114.965 Y116.030 E0.01591
G1 X112.905 Y113.970 E0.08687
G1 X112.371 Y113.970 E0.01591
G1 X114.431 Y116.030 E0.08687
G1 X113.898 Y116.030 E0.01591
G1 X111.837 Y113.970 E0.08687
G1 X111.304 Y113.970 E0.01591
G1 X113.364 Y116.030 E0.08687
G1 X112.830 Y116.030 E0.01591
G1 X110.770 Y113.970 E0.08687
G1 X110.236 Y113.970 E0.01591
G1 X112.296 Y116.030 E0.08687
G1 X111.762 Y116.030 E0.01591
G1 X109.702 Y113.970 E0.08687
G1 X109.168 Y113.970 E0.01591
G1 X111.229 Y116.030 E0.08687
G1 X110.695 Y116.030 E0.01591
G1 X108.635 Y113.970 E0.08687
G1 X108.101 Y113.970 E0.01591
G1 X110.161 Y116.030 E0.08687
G1 X109.627 Y116.030 E0.01591
G1 X107.567 Y113.970 E0.08687
G1 X107.033 Y113.970 E0.01591
G1 X109.094 Y116.030 E0.08687
G1 X108.560 Y116.030 E0.01591
G1 X106.499 Y113.970 E0.08687
G1 X105.966 Y113.970 E0.01591
G1 X108.026 Y116.030 E0.08687
G1 X107.492 Y116.030 E0.01591
G1 X105.432 Y113.970 E0.08687
G1 X104.898 Y113.970 E0.01591
G1 X106.958 Y116.030 E0.08687
G1 X106.425 Y116.030 E0.01591
G1 X104.364 Y113.970 E0.08687
G1 X103.831 Y113.970 E0.01591
G1 X105.891 Y116.030 E0.08687
G1 X105.357 Y116.030 E0.01591
G1 X103.297 Y113.970 E0.08687
G1 X102.763 Y113.970 E0.01591
G1 X104.823 Y116.030 E0.08687
G1 X104.289 Y116.030 E0.01591
G1 X102.229 Y113.970 E0.08687
G1 X101.695 Y113.970 E0.01591
G1 X103.756 Y116.030 E0.08687
G1 X103.222 Y116.030 E0.01591
G1 X101.162 Y113.970 E0.08687
G1 X100.628 Y113.970 E0.01591
G1 X102.688 Y116.030 E0.08687
G1 X102.154 Y116.030 E0.01591
G1 X100.094 Y113.970 E0.08687
G1 X99.560 Y113.970 E0.01591
G1 X101.621 Y116.030 E0.08687
G1 X101.087 Y116.030 E0.01591
G1 X99.027 Y113.970 E0.08687
G1 X98.493 Y113.970 E0.01591
G1 X100.553 Y116.030 E0.08687
G1 X100.019 Y116.030 E0.01591
G1 X97.959 Y113.970 E0.08687
G1 X97.425 Y113.970 E0.01591
G1 X99.485 Y116.030 E0.08687
G1 X98.952 Y116.030 E0.01591
G1 X96.891 Y113.970 E0.08687
G1 X96.358 Y113.970 E0.01591
G1 X98.418 Y116.030 E0.08687
G1 X97.884 Y116.030 E0.01591
G1 X95.824 Y113.970 E0.08687
G1 X95.290 Y113.970 E0.01591
G1 X97.350 Y116.030 E0.08687
G1 X96.817 Y116.030 E0.01591
G1 X94.756 Y113.970 E0.08687
G1 X94.223 Y113.970 E0.01591
G1 X96.283 Y116.030 E0.08687
G1 X95.749 Y116.030 E0.01591
G1 X93.689 Y113.970 E0.08687
G1 X93.155 Y113.970 E0.01591
G1 X95.215 Y116.030 E0.08687
G1 X94.681 Y116.030 E0.01591
G1 X92.621 Y113.970 E0.08687
G1 X92.087 Y113.970 E0.01591
G1 X94.148 Y116.030 E0.08687
G1 X93.614 Y116.030 E0.01591
G1 X91.554 Y113.970 E0.08687
G1 X91.020 Y113.970 E0.01591
G1 X93.080 Y116.030 E0.08687
G1 X92.546 Y116.030 E0.01591
G1 X90.486 Y113.970 E0.08687
G1 X89.952 Y113.970 E0.01591
G1 X92.013 Y116.030 E0.08687
G1 X91.479 Y116.030 E0.01591
G1 X89.419 Y113.970 E0.08687
G1 X88.885 Y113.970 E0.01591
G1 X90.945 Y116.030 E0.08687
G1 X90.411 Y116.030 E0.01591
G1 X88.351 Y113.970 E0.08687
G1 X87.817 Y113.970 E0.01591
G1 X89.877 Y116.030 E0.08687
G1 X89.344 Y116.030 E0.01591
G1 X87.283 Y113.970 E0.08687
G1 X86.750 Y113.970 E0.01591
G1 X88.810 Y116.030 E0.08687
G1 X88.276 Y116.030 E0.01591
G1 X86.216 Y113.970 E0.08687
G1 X85.682 Y113.970 E0.01591
G1 X87.742 Y116.030 E0.08687
G1 X87.209 Y116.030 E0.01591
G1 X85.148 Y113.970 E0.08687
G1 X84.615 Y113.970 E0.01591
G1 X86.675 Y116.030 E0.08687
G1 X86.141 Y116.030 E0.01591
G1 X84.081 Y113.970 E0.08687
G1 X83.547 Y113.970 E0.01591
G1 X85.607 Y116.030 E0.08687
G1 X85.073 Y116.030 E0.01591
G1 X83.013 Y113.970 E0.08687
G1 X82.479 Y113.970 E0.01591
G1 X84.540 Y116.030 E0.08687
G1 X84.006 Y116.030 E0.01591
G1 X81.946 Y113.970 E0.08687
G1 X81.412 Y113.970 E0.01591
G1 X83.472 Y116.030 E0.08687
G1 X82.938 Y116.030 E0.01591
G1 X80.878 Y113.970 E0.08687
G1 X80.344 Y113.970 E0.01591
G1 X82.405 Y116.030 E0.08687
G1 X81.871 Y116.030 E0.01591
G1 X79.811 Y113.970 E0.08687
G1 X79.277 Y113.970 E0.01591
G1 X81.337 Y116.030 E0.08687
G1 X80.803 Y116.030 E0.01591
G1 X78.743 Y113.970 E0.08687
G1 X78.209 Y113.970 E0.01591
G1 X80.269 Y116.030 E0.08687
G1 X79.736 Y116.030 E0.01591
G1 X77.675 Y113.970 E0.08687
G1 X77.142 Y113.970 E0.01591
G1 X79.202 Y116.030 E0.08687
G1 X78.668 Y116.030 E0.01591
G1 X76.608 Y113.970 E0.08687
G1 X76.074 Y113.970 E0.01591
G1 X78.134 Y116.030 E0.08687
G1 X77.601 Y116.030 E0.01591
G1 X75.540 Y113.970 E0.08687
G1 X75.007 Y113.970 E0.01591
G1 X77.067 Y116.030 E0.08687
G1 X76.533 Y116.030 E0.01591
G1 X74.473 Y113.970 E0.08687
G1 X73.939 Y113.970 E0.01591
G1 X75.999 Y116.030 E0.08687
G1 X75.465 Y116.030 E0.01591
G1 X73.405 Y113.970 E0.08687
G1 X72.871 Y113.970 E0.01591
G1 X74.932 Y116.030 E0.08687
G1 X74.398 Y116.030 E0.01591
G1 X72.338 Y113.970 E0.08687
G1 X71.804 Y113.970 E0.01591
G1 X73.864 Y116.030 E0.08687
G1 X73.330 Y116.030 E0.01591
G1 X71.270 Y113.970 E0.08687
G1 X70.736 Y113.970 E0.01591
G1 X72.797 Y116.030 E0.08687
G1 X72.263 Y116.030 E0.01591
G1 X70.202 Y113.970 E0.08687
G1 X69.669 Y113.970 E0.01591
G1 X71.729 Y116.030 E0.08687
G1 X71.195 Y116.030 E0.01591
G1 X69.135 Y113.970 E0.08687
G1 X68.601 Y113.970 E0.01591
G1 X70.661 Y116.030 E0.08687
G1 X70.128 Y116.030 E0.01591
G1 X68.067 Y113.970 E0.08687
G1 X67.534 Y113.970 E0.01591
G1 X69.594 Y116.030 E0.08687
G1 X69.060 Y116.030 E0.01591
G1 X67.000 Y113.970 E0.08687
G1 X66.466 Y113.970 E0.01591
G1 X68.526 Y116.030 E0.08687
G1 X67.993 Y116.030 E0.01591
G1 X65.932 Y113.970 E0.08687
G1 X65.398 Y113.970 E0.01591
G1 X67.459 Y116.030 E0.08687
G1 X66.925 Y116.030 E0.01591
G1 X64.865 Y113.970 E0.08687
G1 X64.331 Y113.970 E0.01591
G1 X66.391 Y116.030 E0.08687
G1 X65.857 Y116.030 E0.01591
G1 X63.797 Y113.970 E0.08687
G1 X63.263 Y113.970 E0.01591
G1 X65.324 Y116.030 E0.08687
G1 X64.790 Y116.030 E0.01591
G1 X62.730 Y113.970 E0.08687
G1 X62.196 Y113.970 E0.01591
G1 X64.256 Y116.030 E0.08687
G1 X63.722 Y116.030 E0.01591
G1 X61.662 Y113.970 E0.08687
G1 X61.128 Y113.970 E0.01591
G1 X63.188 Y116.030 E0.08687
G1 X62.655 Y116.030 E0.01591
G1 X60.594 Y113.970 E0.08687
G1 X60.061 Y113.970 E0.01591
G1 X62.121 Y116.030 E0.08687
G1 X61.600 Y116.043 E0.01554
G1 X59.527 Y113.970 E0.08741
G1 X58.993 Y113.970 E0.01591
G1 X61.106 Y116.083 E0.08908
G1 X60.663 Y116.174 E0.01348
