; generated by PrusaSlicer 2.3.0+linux-x64 on 2021-04-18 at 09:38:36 UTC

; 

; external perimeters extrusion width = 0.45mm
; perimeters extrusion width = 0.45mm
; infill extrusion width = 0.45mm
; solid infill extrusion width = 0.45mm
; top infill extrusion width = 0.40mm
; first layer extrusion width = 0.42mm

M201 X500 Y500 Z100 E5000 ; sets maximum accelerations, mm/sec^2
M203 X500 Y500 Z10 E60 ; sets maximum feedrates, mm/sec
M204 P500 R1000 T500 ; sets acceleration (P, T) and retract acceleration (R), mm/sec^2
M205 X8.00 Y8.00 Z0.40 E5.00 ; sets the jerk limits, mm/sec
M205 S0 T0 ; sets the minimum extruding and travel feed rate, mm/sec
M107
;TYPE:Custom
G90 ; use absolute coordinates
M83 ; extruder relative mode
M104 S220 ; set extruder temp
M140 S60 ; set bed temp
M190 S60 ; wait for bed temp
M109 S220 ; wait for extruder temp
G28 ; home all
G29 ; Auto bed-level (BL-Touch)
G92 E0 ; Reset Extruder
G1 Z2 F240
G1 X2 Y10 F3000
G1 Z0.28 F240
G92 E0
G1 Y190 E15 F1500 ; intro line
G1 X2.3 F5000
G92 E0
G1 Y10 E15 F1200 ; intro line
G92 E0
G21 ; set units to millimeters
G90 ; use absolute coordinates
M83 ; use relative distances for extrusion
; Filament gcode
;LAYER_CHANGE
;Z:0.2
;HEIGHT:0.2
;BEFORE_LAYER_CHANGE
G92 E0
;0.2


G1 E-5.00000 F3600.000
G1 Z0.200 F18000.000
;AFTER_LAYER_CHANGE
;0.2
G1 X29.191 Y100.357
G1 E5.00000 F2400.000
;TYPE:Skirt
;WIDTH:0.42
G1 X29.953 Y100.138 E0.02360
G1 X183.004 Y100.123 E4.55886
G1 X184.828 Y100.303 E0.05461
G1 X186.584 Y100.835 E0.05464
G1 X188.202 Y101.698 E0.05464
G1 X189.589 Y102.829 E0.05328
G1 X190.763 Y104.241 E0.05472
G1 X191.499 Y105.538 E0.04441
G1 X192.097 Y107.224 E0.05329
G1 X192.366 Y109.043 E0.05475
G1 X192.337 Y111.357 E0.06896
G1 X192.088 Y112.810 E0.04391
G1 X191.472 Y114.518 E0.05408
G1 X190.496 Y116.132 E0.05618
G1 X189.908 Y116.840 E0.02741
G1 X188.996 Y117.709 E0.03754
G1 X187.471 Y118.742 E0.05485
G1 X185.734 Y119.470 E0.05610
G1 X183.954 Y119.828 E0.05408
G1 X30.190 Y119.877 E4.58013
G1 X29.349 Y119.712 E0.02550
G1 X28.625 Y119.263 E0.02539
G1 X28.104 Y118.583 E0.02550
G1 X27.858 Y117.767 E0.02539
G1 X27.860 Y102.219 E0.46313
G1 X28.083 Y101.459 E0.02360
G1 X28.544 Y100.814 E0.02360
G1 X29.142 Y100.392 E0.02181
G1 E-3.50000 F3600.000
;WIPE_START
G1 F14400.000
G1 X29.953 Y100.138 E-0.20170
G1 X35.104 Y100.137 E-1.22330
;WIPE_END
G1 E-0.07500 F3600.000
G1 X111.597 Y105.059 F18000.000
G1 E5.00000 F2400.000
;TYPE:Perimeter
G1 X111.808 Y104.802 E0.00990
G1 X112.065 Y104.592 E0.00990
G1 X112.353 Y104.440 E0.00968
G1 X112.603 Y104.358 E0.00786
G1 X112.925 Y104.312 E0.00968
G1 X113.264 Y104.330 E0.01011
G1 X113.621 Y104.431 E0.01103
G1 X132.732 Y112.485 E0.61775
G1 X133.007 Y112.653 E0.00959
G1 X133.253 Y112.882 E0.01003
G1 X133.450 Y113.155 E0.01003
G1 X133.588 Y113.462 E0.01003
G1 X133.663 Y113.790 E0.01003
G1 X133.671 Y114.119 E0.00980
G1 X133.632 Y114.383 E0.00796
G1 X133.522 Y114.709 E0.01025
G1 X133.260 Y115.114 E0.01437
G1 X132.934 Y115.403 E0.01298
G1 X132.492 Y115.615 E0.01459
G1 X132.092 Y115.686 E0.01209
G1 X112.963 Y115.687 E0.56981
G1 X112.596 Y115.642 E0.01100
G1 X112.264 Y115.523 E0.01052
G1 X111.869 Y115.259 E0.01415
G1 X111.594 Y114.940 E0.01255
G1 X111.404 Y114.563 E0.01255
G1 X111.314 Y114.112 E0.01371
G1 X111.314 Y105.902 E0.24453
G1 X111.360 Y105.595 E0.00925
G1 X111.443 Y105.345 E0.00786
G1 X111.568 Y105.111 E0.00789
G1 X111.791 Y105.495 F18000.000
;TYPE:External perimeter
G1 F2400.000
G1 X111.911 Y105.270 E0.00760
G1 X112.075 Y105.071 E0.00768
G1 X112.275 Y104.908 E0.00768
G1 X112.500 Y104.788 E0.00760
G1 X112.689 Y104.727 E0.00592
G1 X112.942 Y104.690 E0.00760
G1 X113.202 Y104.704 E0.00776
G1 X113.496 Y104.787 E0.00909
G1 X132.559 Y112.821 E0.61621
G1 X132.778 Y112.955 E0.00762
G1 X132.969 Y113.132 E0.00778
G1 X133.122 Y113.344 E0.00778
G1 X133.229 Y113.582 E0.00778
G1 X133.287 Y113.837 E0.00778
G1 X133.294 Y114.095 E0.00770
G1 X133.264 Y114.294 E0.00599
G1 X133.180 Y114.544 E0.00786
G1 X132.972 Y114.866 E0.01141
G1 X132.723 Y115.085 E0.00988
G1 X132.376 Y115.253 E0.01149
G1 X132.059 Y115.309 E0.00956
G1 X112.986 Y115.310 E0.56814
G1 X112.684 Y115.273 E0.00906
G1 X112.435 Y115.183 E0.00789
G1 X112.121 Y114.974 E0.01124
G1 X111.909 Y114.729 E0.00964
G1 X111.764 Y114.440 E0.00964
G1 X111.691 Y114.075 E0.01108
G1 X111.691 Y105.930 E0.24259
G1 X111.728 Y105.683 E0.00745
G1 X111.772 Y105.551 E0.00413
G1 X111.637 Y105.290 F18000.000
G1 E-3.50000 F3600.000
;WIPE_START
G1 F14400.000
G1 X111.911 Y105.270 E-0.07469
G1 X112.075 Y105.071 E-0.06123
G1 X112.275 Y104.908 E-0.06123
G1 X112.500 Y104.788 E-0.06060
G1 X112.689 Y104.727 E-0.04718
G1 X112.942 Y104.690 E-0.06061
G1 X113.202 Y104.704 E-0.06184
G1 X113.496 Y104.787 E-0.07249
G1 X117.085 Y106.300 E-0.92513
;WIPE_END
G1 E-0.07500 F3600.000
G1 X120.337 Y106.225 F18000.000
G1 E5.00000 F2400.000
;TYPE:Perimeter
G1 X120.329 Y105.881 E0.01025
G1 X120.368 Y105.617 E0.00796
G1 X120.471 Y105.312 E0.00959
G1 X120.606 Y105.064 E0.00840
G1 X120.910 Y104.719 E0.01371
G1 X121.139 Y104.555 E0.00840
G1 X121.429 Y104.415 E0.00959
G1 X121.686 Y104.343 E0.00795
G1 X121.983 Y104.313 E0.00889
G1 X141.037 Y104.313 E0.56756
G1 X141.404 Y104.358 E0.01100
G1 X141.736 Y104.477 E0.01051
G1 X142.131 Y104.741 E0.01415
G1 X142.411 Y105.066 E0.01277
G1 X142.617 Y105.502 E0.01437
G1 X142.686 Y105.895 E0.01190
G1 X142.687 Y114.037 E0.24252
G1 X142.641 Y114.405 E0.01103
G1 X142.529 Y114.718 E0.00990
G1 X142.399 Y114.947 E0.00786
G1 X142.192 Y115.198 E0.00968
G1 X141.935 Y115.408 E0.00990
G1 X141.647 Y115.560 E0.00968
G1 X141.397 Y115.642 E0.00786
G1 X141.075 Y115.688 E0.00968
G1 X140.743 Y115.670 E0.00990
G1 X140.435 Y115.591 E0.00946
G1 X121.275 Y107.518 E0.61932
G1 X121.056 Y107.392 E0.00752
G1 X120.810 Y107.185 E0.00959
G1 X120.638 Y106.980 E0.00796
G1 X120.466 Y106.682 E0.01025
G1 X120.353 Y106.283 E0.01236
G1 X121.273 Y107.082 F18000.000
;TYPE:External perimeter
G1 F2400.000
G1 X121.077 Y106.917 E0.00762
G1 X120.948 Y106.763 E0.00599
G1 X120.816 Y106.535 E0.00786
G1 X120.713 Y106.168 E0.01134
G1 X120.706 Y105.905 E0.00786
G1 X120.736 Y105.706 E0.00599
G1 X120.818 Y105.463 E0.00762
G1 X120.917 Y105.282 E0.00615
G1 X121.165 Y105.001 E0.01118
G1 X121.332 Y104.880 E0.00615
G1 X121.563 Y104.769 E0.00762
G1 X121.757 Y104.715 E0.00599
G1 X122.002 Y104.690 E0.00735
G1 X141.014 Y104.690 E0.56631
G1 X141.316 Y104.727 E0.00906
G1 X141.565 Y104.817 E0.00789
G1 X141.879 Y105.026 E0.01124
G1 X142.092 Y105.273 E0.00972
G1 X142.255 Y105.617 E0.01131
G1 X142.309 Y105.928 E0.00941
G1 X142.310 Y114.014 E0.24086
G1 X142.272 Y114.317 E0.00909
G1 X142.185 Y114.560 E0.00768
G1 X142.087 Y114.732 E0.00592
G1 X141.925 Y114.929 E0.00760
G1 X141.725 Y115.092 E0.00768
G1 X141.500 Y115.212 E0.00760
G1 X141.311 Y115.273 E0.00592
G1 X141.058 Y115.310 E0.00760
G1 X140.801 Y115.296 E0.00768
G1 X140.556 Y115.233 E0.00752
G1 X121.443 Y107.180 E0.61779
G1 X121.325 Y107.112 E0.00405
G1 X121.043 Y107.193 F18000.000
G1 E-3.50000 F3600.000
;WIPE_START
G1 F14400.000
G1 X121.077 Y106.917 E-0.07483
G1 X120.948 Y106.763 E-0.04778
G1 X120.816 Y106.535 E-0.06264
G1 X120.713 Y106.168 E-0.09038
G1 X120.706 Y105.905 E-0.06264
G1 X120.736 Y105.706 E-0.04778
G1 X120.818 Y105.463 E-0.06076
G1 X120.917 Y105.282 E-0.04904
G1 X121.165 Y105.001 E-0.08912
G1 X121.332 Y104.880 E-0.04904
G1 X121.563 Y104.769 E-0.06075
G1 X121.757 Y104.715 E-0.04777
G1 X122.002 Y104.690 E-0.05858
G1 X124.629 Y104.690 E-0.62390
;WIPE_END
G1 E-0.07500 F3600.000
G1 X143.439 Y105.351 F18000.000
G1 E5.00000 F2400.000
;TYPE:Perimeter
G1 X143.597 Y105.059 E0.00990
G1 X143.808 Y104.802 E0.00990
G1 X144.065 Y104.592 E0.00990
G1 X144.353 Y104.440 E0.00968
G1 X144.603 Y104.358 E0.00786
G1 X144.925 Y104.312 E0.00968
G1 X145.264 Y104.330 E0.01011
G1 X145.621 Y104.431 E0.01103
G1 X164.732 Y112.485 E0.61775
G1 X165.000 Y112.649 E0.00937
G1 X165.201 Y112.826 E0.00796
G1 X165.406 Y113.083 E0.00981
G1 X165.559 Y113.382 E0.01003
G1 X165.651 Y113.706 E0.01002
G1 X165.676 Y114.042 E0.01003
G1 X165.634 Y114.376 E0.01003
G1 X165.522 Y114.709 E0.01047
G1 X165.260 Y115.114 E0.01437
G1 X164.939 Y115.398 E0.01275
G1 X164.558 Y115.593 E0.01275
G1 X164.100 Y115.686 E0.01393
G1 X144.963 Y115.687 E0.57003
G1 X144.596 Y115.642 E0.01100
G1 X144.264 Y115.523 E0.01052
G1 X143.869 Y115.259 E0.01415
G1 X143.594 Y114.940 E0.01255
G1 X143.404 Y114.563 E0.01255
G1 X143.314 Y114.112 E0.01371
G1 X143.314 Y105.910 E0.24431
G1 X143.345 Y105.662 E0.00742
G1 X143.422 Y105.409 E0.00789
G1 X143.715 Y105.741 F18000.000
;TYPE:External perimeter
G1 F2400.000
G1 X143.789 Y105.497 E0.00760
G1 X143.911 Y105.270 E0.00768
G1 X144.075 Y105.071 E0.00768
G1 X144.275 Y104.908 E0.00768
G1 X144.500 Y104.788 E0.00760
G1 X144.689 Y104.727 E0.00592
G1 X144.942 Y104.690 E0.00760
G1 X145.202 Y104.704 E0.00776
G1 X145.496 Y104.787 E0.00909
G1 X164.559 Y112.821 E0.61621
G1 X164.775 Y112.953 E0.00754
G1 X164.926 Y113.087 E0.00599
G1 X165.088 Y113.289 E0.00770
G1 X165.207 Y113.521 E0.00778
G1 X165.277 Y113.772 E0.00778
G1 X165.297 Y114.033 E0.00778
G1 X165.264 Y114.292 E0.00778
G1 X165.180 Y114.544 E0.00794
G1 X164.972 Y114.866 E0.01141
G1 X164.725 Y115.084 E0.00980
G1 X164.433 Y115.234 E0.00980
G1 X164.062 Y115.309 E0.01126
G1 X144.986 Y115.310 E0.56822
G1 X144.684 Y115.273 E0.00906
G1 X144.435 Y115.183 E0.00789
G1 X144.121 Y114.974 E0.01124
G1 X143.909 Y114.729 E0.00964
G1 X143.764 Y114.440 E0.00964
G1 X143.691 Y114.075 E0.01108
G1 X143.691 Y105.933 E0.24251
G1 X143.708 Y105.800 E0.00397
G1 X143.523 Y105.572 F18000.000
G1 E-3.50000 F3600.000
;WIPE_START
G1 F14400.000
G1 X143.789 Y105.497 E-0.07469
G1 X143.911 Y105.270 E-0.06123
G1 X144.075 Y105.071 E-0.06123
G1 X144.275 Y104.908 E-0.06123
G1 X144.500 Y104.788 E-0.06060
G1 X144.689 Y104.727 E-0.04718
G1 X144.942 Y104.690 E-0.06061
G1 X145.202 Y104.704 E-0.06184
G1 X145.496 Y104.787 E-0.07249
G1 X148.848 Y106.200 E-0.86390
;WIPE_END
G1 E-0.07500 F3600.000
G1 X152.337 Y106.225 F18000.000
G1 E5.00000 F2400.000
;TYPE:Perimeter
G1 X152.329 Y105.881 E0.01025
G1 X152.368 Y105.617 E0.00796
G1 X152.471 Y105.312 E0.00959
G1 X152.606 Y105.064 E0.00840
G1 X152.915 Y104.714 E0.01393
G1 X153.199 Y104.520 E0.01025
G1 X153.436 Y104.413 E0.00774
G1 X153.686 Y104.343 E0.00773
G1 X153.983 Y104.313 E0.00889
G1 X173.037 Y104.313 E0.56756
G1 X173.404 Y104.358 E0.01100
G1 X173.729 Y104.475 E0.01030
G1 X174.079 Y104.696 E0.01234
G1 X174.403 Y105.054 E0.01437
G1 X174.596 Y105.437 E0.01277
G1 X174.686 Y105.888 E0.01371
G1 X174.687 Y114.037 E0.24274
G1 X174.641 Y114.405 E0.01104
G1 X174.527 Y114.725 E0.01011
G1 X174.355 Y115.009 E0.00990
G1 X174.132 Y115.255 E0.00990
G1 X173.870 Y115.448 E0.00968
G1 X173.634 Y115.566 E0.00786
G1 X173.330 Y115.657 E0.00946
G1 X173.068 Y115.688 E0.00786
G1 X172.743 Y115.670 E0.00968
G1 X172.435 Y115.591 E0.00946
G1 X153.268 Y107.515 E0.61954
G1 X153.000 Y107.351 E0.00937
G1 X152.805 Y107.179 E0.00774
G1 X152.638 Y106.980 E0.00774
G1 X152.466 Y106.682 E0.01025
G1 X152.353 Y106.283 E0.01236
G1 X153.076 Y106.915 F18000.000
;TYPE:External perimeter
G1 F2400.000
G1 X152.948 Y106.763 E0.00591
G1 X152.816 Y106.535 E0.00786
G1 X152.713 Y106.168 E0.01134
G1 X152.706 Y105.905 E0.00786
G1 X152.736 Y105.706 E0.00599
G1 X152.818 Y105.463 E0.00762
G1 X152.917 Y105.282 E0.00615
G1 X153.167 Y104.999 E0.01126
G1 X153.384 Y104.850 E0.00786
G1 X153.565 Y104.768 E0.00591
G1 X153.757 Y104.715 E0.00591
G1 X154.002 Y104.690 E0.00735
G1 X173.014 Y104.690 E0.56631
G1 X173.316 Y104.727 E0.00906
G1 X173.563 Y104.816 E0.00781
G1 X173.834 Y104.988 E0.00957
G1 X174.089 Y105.269 E0.01131
G1 X174.236 Y105.560 E0.00972
G1 X174.309 Y105.925 E0.01108
G1 X174.310 Y114.014 E0.24094
G1 X174.272 Y114.317 E0.00909
G1 X174.184 Y114.562 E0.00776
G1 X174.051 Y114.783 E0.00768
G1 X173.878 Y114.974 E0.00768
G1 X173.673 Y115.125 E0.00760
G1 X173.495 Y115.214 E0.00592
G1 X173.253 Y115.286 E0.00752
G1 X173.056 Y115.310 E0.00592
G1 X172.801 Y115.296 E0.00760
G1 X172.556 Y115.233 E0.00752
G1 X153.441 Y107.179 E0.61787
G1 X153.225 Y107.047 E0.00754
G1 X153.121 Y106.955 E0.00413
G1 X152.884 Y106.966 F18000.000
G1 E-3.50000 F3600.000
;WIPE_START
G1 F14400.000
G1 X152.948 Y106.763 E-0.06128
G1 X152.816 Y106.535 E-0.06264
G1 X152.713 Y106.168 E-0.09038
G1 X152.706 Y105.905 E-0.06264
G1 X152.736 Y105.706 E-0.04778
G1 X152.818 Y105.463 E-0.06076
G1 X152.917 Y105.282 E-0.04904
G1 X153.167 Y104.999 E-0.08975
G1 X153.384 Y104.850 E-0.06264
G1 X153.565 Y104.768 E-0.04716
G1 X153.757 Y104.715 E-0.04714
G1 X154.002 Y104.690 E-0.05858
G1 X156.887 Y104.690 E-0.68522
;WIPE_END
G1 E-0.07500 F3600.000
G1 X179.265 Y109.447 F18000.000
G1 E5.00000 F2400.000
;TYPE:Perimeter
G1 X179.429 Y108.916 E0.01655
G1 X179.695 Y108.428 E0.01655
G1 X180.052 Y108.003 E0.01655
G1 X180.486 Y107.656 E0.01655
G1 X180.981 Y107.403 E0.01655
G1 X181.514 Y107.253 E0.01651
G1 X182.040 Y107.211 E0.01573
G1 X182.619 Y107.279 E0.01735
G1 X183.148 Y107.457 E0.01661
G1 X183.627 Y107.734 E0.01651
G1 X184.025 Y108.081 E0.01573
G1 X184.379 Y108.542 E0.01731
G1 X184.606 Y109.007 E0.01541
G1 X184.713 Y109.354 E0.01082
G1 X184.787 Y109.891 E0.01615
G1 X184.759 Y110.417 E0.01568
G1 X184.622 Y110.954 E0.01651
G1 X184.381 Y111.455 E0.01655
G1 X184.045 Y111.898 E0.01655
G1 X183.629 Y112.265 E0.01655
G1 X183.148 Y112.543 E0.01655
G1 X182.621 Y112.720 E0.01655
G1 X182.070 Y112.789 E0.01655
G1 X181.516 Y112.748 E0.01655
G1 X180.981 Y112.597 E0.01655
G1 X180.486 Y112.344 E0.01655
G1 X180.052 Y111.997 E0.01655
G1 X179.695 Y111.572 E0.01655
G1 X179.429 Y111.084 E0.01655
G1 X179.265 Y110.553 E0.01655
G1 X179.210 Y110.000 E0.01655
G1 X179.259 Y109.507 E0.01476
G1 X179.635 Y109.544 F18000.000
;TYPE:External perimeter
G1 F2400.000
G1 X179.778 Y109.063 E0.01495
G1 X180.008 Y108.642 E0.01430
G1 X180.316 Y108.274 E0.01430
G1 X180.692 Y107.975 E0.01430
G1 X181.119 Y107.756 E0.01430
G1 X181.581 Y107.626 E0.01429
G1 X182.033 Y107.590 E0.01352
G1 X182.536 Y107.649 E0.01508
G1 X182.992 Y107.802 E0.01432
G1 X183.407 Y108.042 E0.01429
G1 X183.749 Y108.341 E0.01352
G1 X184.057 Y108.742 E0.01506
G1 X184.254 Y109.146 E0.01340
G1 X184.343 Y109.436 E0.00905
G1 X184.409 Y109.907 E0.01416
G1 X184.384 Y110.360 E0.01350
G1 X184.266 Y110.825 E0.01429
G1 X184.057 Y111.257 E0.01430
G1 X183.767 Y111.640 E0.01430
G1 X183.407 Y111.958 E0.01430
G1 X182.992 Y112.198 E0.01430
G1 X182.537 Y112.351 E0.01430
G1 X182.060 Y112.410 E0.01430
G1 X181.581 Y112.374 E0.01430
G1 X181.119 Y112.244 E0.01430
G1 X180.692 Y112.025 E0.01430
G1 X180.316 Y111.726 E0.01430
G1 X180.008 Y111.358 E0.01430
G1 X179.778 Y110.937 E0.01430
G1 X179.637 Y110.478 E0.01430
G1 X179.589 Y110.000 E0.01430
G1 X179.629 Y109.604 E0.01185
G1 X179.333 Y109.282 F18000.000
G1 E-3.50000 F3600.000
;WIPE_START
G1 F14400.000
G1 X179.778 Y109.063 E-0.13324
G1 X180.008 Y108.642 E-0.11403
G1 X180.316 Y108.274 E-0.11403
G1 X180.692 Y107.975 E-0.11403
G1 X181.119 Y107.756 E-0.11403
G1 X181.581 Y107.626 E-0.11392
G1 X182.033 Y107.590 E-0.10778
G1 X182.536 Y107.649 E-0.12020
G1 X182.992 Y107.802 E-0.11421
G1 X183.407 Y108.042 E-0.11391
G1 X183.749 Y108.341 E-0.10778
G1 X184.057 Y108.742 E-0.12009
G1 X184.126 Y108.885 E-0.03776
;WIPE_END
G1 E-0.07500 F3600.000
G1 X110.617 Y105.502 F18000.000
G1 E5.00000 F2400.000
;TYPE:Perimeter
G1 X110.686 Y105.895 E0.01190
G1 X110.687 Y114.037 E0.24252
G1 X110.641 Y114.405 E0.01103
G1 X110.529 Y114.718 E0.00990
G1 X110.399 Y114.947 E0.00786
G1 X110.192 Y115.198 E0.00968
G1 X109.935 Y115.408 E0.00990
G1 X109.647 Y115.560 E0.00968
G1 X109.397 Y115.642 E0.00786
G1 X109.075 Y115.688 E0.00968
G1 X108.743 Y115.670 E0.00990
G1 X108.435 Y115.591 E0.00947
G1 X89.268 Y107.515 E0.61954
G1 X89.000 Y107.351 E0.00937
G1 X88.799 Y107.174 E0.00796
G1 X88.599 Y106.923 E0.00959
G1 X88.464 Y106.675 E0.00840
G1 X88.339 Y106.232 E0.01371
G1 X88.325 Y105.951 E0.00840
G1 X88.368 Y105.609 E0.01025
G1 X88.539 Y105.174 E0.01393
G1 X88.698 Y104.941 E0.00840
G1 X88.922 Y104.711 E0.00959
G1 X89.139 Y104.555 E0.00796
G1 X89.429 Y104.415 E0.00958
G1 X89.686 Y104.343 E0.00795
G1 X89.983 Y104.313 E0.00889
G1 X109.037 Y104.313 E0.56756
G1 X109.404 Y104.358 E0.01100
