; generated by PrusaSlicer 2.3.0+linux-x64 on 2021-04-18 at 12:55:28 UTC

; 

; external perimeters extrusion width = 0.45mm
; perimeters extrusion width = 0.45mm
; infill extrusion width = 0.45mm
; solid infill extrusion width = 0.45mm
; top infill extrusion width = 0.40mm
; first layer extrusion width = 0.42mm

M201 X500 Y500 Z100 E5000 ; sets maximum accelerations, mm/sec^2
M203 X500 Y500 Z10 E60 ; sets maximum feedrates, mm/sec
M204 P500 R1000 T500 ; sets acceleration (P, T) and retract acceleration (R), mm/sec^2
M205 X8.00 Y8.00 Z0.40 E5.00 ; sets the jerk limits, mm/sec
M205 S0 T0 ; sets the minimum extruding and travel feed rate, mm/sec
M107
;TYPE:Custom
G90 ; use absolute coordinates
M83 ; extruder relative mode
M104 S220 ; set extruder temp
M140 S60 ; set bed temp
M190 S60 ; wait for bed temp
M109 S220 ; wait for extruder temp
G28 ; home all
G29 ; Auto bed-level (BL-Touch)
G92 E0 ; Reset Extruder
G1 Z2 F240
G1 X2 Y10 F3000
G1 Z0.28 F240
G92 E0
G1 Y190 E15 F1500 ; intro line
G1 X2.3 F5000
G92 E0
G1 Y10 E15 F1200 ; intro line
G92 E0
G21 ; set units to millimeters
G90 ; use absolute coordinates
M83 ; use relative distances for extrusion
; Filament gcode
;LAYER_CHANGE
;Z:0.2
;HEIGHT:0.2
;BEFORE_LAYER_CHANGE
G92 E0
;0.2


G1 E-5.00000 F3600.000
G1 Z0.200 F18000.000
;AFTER_LAYER_CHANGE
;0.2
G1 X69.038 Y79.365
G1 E5.00000 F2400.000
;TYPE:Skirt
;WIDTH:0.42
G1 X69.826 Y78.960 E0.02639
G1 X70.495 Y78.862 E0.02013
G1 X149.004 Y78.862 E2.33851
G1 X149.540 Y78.924 E0.01608
G1 X150.048 Y79.106 E0.01608
G1 X150.502 Y79.397 E0.01608
G1 X150.879 Y79.784 E0.01608
G1 X151.173 Y80.276 E0.01709
G1 X151.476 Y81.132 E0.02703
G1 X151.649 Y82.282 E0.03463
G1 X151.656 Y101.592 E0.57517
G1 X151.514 Y102.740 E0.03446
G1 X151.090 Y103.902 E0.03686
G1 X150.803 Y104.319 E0.01506
G1 X122.242 Y137.530 E1.30475
G1 X120.804 Y138.840 E0.05795
G1 X119.200 Y139.994 E0.05885
G1 X117.529 Y140.930 E0.05704
G1 X115.894 Y141.629 E0.05296
G1 X114.831 Y141.966 E0.03322
G1 X113.973 Y142.207 E0.02654
G1 X112.225 Y142.530 E0.05296
G1 X110.319 Y142.673 E0.05692
G1 X108.356 Y142.599 E0.05851
G1 X106.459 Y142.310 E0.05715
G1 X104.625 Y141.816 E0.05659
G1 X102.791 Y141.092 E0.05873
G1 X101.104 Y140.194 E0.05692
G1 X99.636 Y139.199 E0.05284
G1 X98.799 Y138.515 E0.03220
G1 X98.102 Y137.888 E0.02791
G1 X96.881 Y136.585 E0.05318
G1 X68.700 Y104.322 E1.27600
G1 X68.344 Y103.770 E0.01957
G1 X68.016 Y102.851 E0.02905
G1 X67.843 Y101.548 E0.03916
G1 X67.850 Y82.299 E0.57336
G1 X67.999 Y81.221 E0.03242
G1 X68.455 Y80.027 E0.03808
G1 X68.999 Y79.410 E0.02450
G1 E-3.50000 F3600.000
;WIPE_START
G1 F14400.000
G1 X69.826 Y78.960 E-0.22377
G1 X70.495 Y78.862 E-0.16048
G1 X74.877 Y78.862 E-1.04075
;WIPE_END
G1 E-0.07500 F3600.000
G1 X93.607 Y94.043 F18000.000
G1 E5.00000 F2400.000
;TYPE:Perimeter
G1 X93.878 Y93.738 E0.01215
G1 X94.214 Y93.506 E0.01215
G1 X94.595 Y93.362 E0.01215
G1 X95.000 Y93.312 E0.01215
G1 X95.405 Y93.362 E0.01215
G1 X95.786 Y93.506 E0.01215
G1 X96.122 Y93.738 E0.01215
G1 X96.393 Y94.043 E0.01215
G1 X96.582 Y94.405 E0.01215
G1 X96.680 Y94.801 E0.01215
G1 X96.680 Y95.209 E0.01215
G1 X96.582 Y95.605 E0.01215
G1 X96.393 Y95.966 E0.01215
G1 X96.122 Y96.271 E0.01215
G1 X95.786 Y96.503 E0.01215
G1 X95.405 Y96.648 E0.01215
G1 X95.000 Y96.697 E0.01215
G1 X94.595 Y96.648 E0.01215
G1 X94.214 Y96.503 E0.01215
G1 X93.878 Y96.271 E0.01215
G1 X93.607 Y95.966 E0.01215
G1 X93.418 Y95.605 E0.01215
G1 X93.320 Y95.209 E0.01215
G1 X93.320 Y94.801 E0.01215
G1 X93.418 Y94.405 E0.01215
G1 X93.580 Y94.096 E0.01036
G1 X93.913 Y94.272 F18000.000
;TYPE:External perimeter
G1 F2400.000
G1 X94.130 Y94.022 E0.00983
G1 X94.390 Y93.843 E0.00942
G1 X94.686 Y93.730 E0.00942
G1 X95.000 Y93.692 E0.00942
G1 X95.314 Y93.730 E0.00942
G1 X95.610 Y93.843 E0.00942
G1 X95.870 Y94.022 E0.00942
G1 X96.080 Y94.259 E0.00942
G1 X96.227 Y94.539 E0.00942
G1 X96.303 Y94.846 E0.00942
G1 X96.303 Y95.163 E0.00942
G1 X96.227 Y95.470 E0.00942
G1 X96.080 Y95.750 E0.00942
G1 X95.870 Y95.987 E0.00942
G1 X95.610 Y96.167 E0.00942
G1 X95.314 Y96.279 E0.00942
G1 X95.000 Y96.317 E0.00942
G1 X94.686 Y96.279 E0.00942
G1 X94.390 Y96.167 E0.00942
G1 X94.130 Y95.987 E0.00942
G1 X93.920 Y95.750 E0.00942
G1 X93.773 Y95.470 E0.00942
G1 X93.697 Y95.163 E0.00942
G1 X93.697 Y94.846 E0.00942
G1 X93.773 Y94.539 E0.00942
G1 X93.886 Y94.325 E0.00721
G1 X93.770 Y93.974 F18000.000
G1 E-3.50000 F3600.000
;WIPE_START
G1 F14400.000
G1 X94.130 Y94.022 E-0.09234
G1 X94.390 Y93.843 E-0.07513
G1 X94.686 Y93.730 E-0.07513
G1 X95.000 Y93.692 E-0.07513
G1 X95.314 Y93.730 E-0.07513
G1 X95.610 Y93.843 E-0.07513
G1 X95.870 Y94.022 E-0.07513
G1 X96.080 Y94.259 E-0.07513
G1 X96.227 Y94.539 E-0.07514
G1 X96.303 Y94.846 E-0.07513
G1 X96.303 Y95.163 E-0.07513
G1 X96.227 Y95.470 E-0.07513
G1 X96.080 Y95.750 E-0.07514
G1 X95.870 Y95.987 E-0.07513
G1 X95.610 Y96.167 E-0.07513
G1 X95.314 Y96.279 E-0.07513
G1 X95.000 Y96.317 E-0.07513
G1 X94.686 Y96.279 E-0.07513
G1 X94.468 Y96.196 E-0.05537
;WIPE_END
G1 E-0.07500 F3600.000
G1 X90.786 Y86.503 F18000.000
G1 E5.00000 F2400.000
;TYPE:Perimeter
G1 X90.405 Y86.648 E0.01215
G1 X90.000 Y86.697 E0.01215
G1 X89.595 Y86.648 E0.01215
G1 X89.214 Y86.503 E0.01215
G1 X88.878 Y86.271 E0.01215
G1 X88.607 Y85.966 E0.01215
G1 X88.418 Y85.605 E0.01215
G1 X88.320 Y85.209 E0.01215
G1 X88.320 Y84.801 E0.01215
G1 X88.418 Y84.405 E0.01215
G1 X88.607 Y84.043 E0.01215
G1 X88.878 Y83.738 E0.01215
G1 X89.214 Y83.506 E0.01215
G1 X89.595 Y83.362 E0.01215
G1 X90.000 Y83.312 E0.01215
G1 X90.405 Y83.362 E0.01215
G1 X90.786 Y83.506 E0.01215
G1 X91.122 Y83.738 E0.01215
G1 X91.393 Y84.043 E0.01215
G1 X91.582 Y84.405 E0.01215
G1 X91.680 Y84.801 E0.01215
G1 X91.680 Y85.209 E0.01215
G1 X91.582 Y85.605 E0.01215
G1 X91.393 Y85.966 E0.01215
G1 X91.122 Y86.271 E0.01215
G1 X90.836 Y86.469 E0.01036
G1 X90.622 Y86.158 F18000.000
;TYPE:External perimeter
G1 F2400.000
G1 X90.314 Y86.279 E0.00983
G1 X90.000 Y86.317 E0.00942
G1 X89.686 Y86.279 E0.00942
G1 X89.390 Y86.167 E0.00942
G1 X89.130 Y85.987 E0.00942
G1 X88.920 Y85.750 E0.00942
G1 X88.773 Y85.470 E0.00942
G1 X88.697 Y85.163 E0.00942
G1 X88.697 Y84.846 E0.00942
G1 X88.773 Y84.539 E0.00942
G1 X88.920 Y84.259 E0.00942
G1 X89.130 Y84.022 E0.00942
G1 X89.390 Y83.843 E0.00942
G1 X89.686 Y83.730 E0.00942
G1 X90.000 Y83.692 E0.00942
G1 X90.314 Y83.730 E0.00942
G1 X90.610 Y83.843 E0.00942
G1 X90.870 Y84.022 E0.00942
G1 X91.080 Y84.259 E0.00942
G1 X91.227 Y84.539 E0.00942
G1 X91.303 Y84.846 E0.00942
G1 X91.303 Y85.163 E0.00942
G1 X91.227 Y85.470 E0.00942
G1 X91.080 Y85.750 E0.00942
G1 X90.870 Y85.987 E0.00942
G1 X90.671 Y86.124 E0.00721
G1 X90.611 Y86.488 F18000.000
G1 E-3.50000 F3600.000
;WIPE_START
G1 F14400.000
G1 X90.314 Y86.279 E-0.09234
G1 X90.000 Y86.317 E-0.07513
G1 X89.686 Y86.279 E-0.07513
G1 X89.390 Y86.167 E-0.07513
G1 X89.130 Y85.987 E-0.07513
G1 X88.920 Y85.750 E-0.07513
G1 X88.773 Y85.470 E-0.07513
G1 X88.697 Y85.163 E-0.07513
G1 X88.697 Y84.846 E-0.07513
G1 X88.773 Y84.539 E-0.07513
G1 X88.920 Y84.259 E-0.07513
G1 X89.130 Y84.022 E-0.07513
G1 X89.390 Y83.843 E-0.07513
G1 X89.686 Y83.730 E-0.07513
G1 X90.000 Y83.692 E-0.07513
G1 X90.314 Y83.730 E-0.07513
G1 X90.610 Y83.843 E-0.07514
G1 X90.870 Y84.022 E-0.07513
G1 X91.025 Y84.197 E-0.05537
;WIPE_END
G1 E-0.07500 F3600.000
G1 X138.320 Y85.209 F18000.000
G1 E5.00000 F2400.000
;TYPE:Perimeter
G1 X138.320 Y84.801 E0.01215
G1 X138.418 Y84.405 E0.01215
G1 X138.607 Y84.043 E0.01215
G1 X138.878 Y83.738 E0.01215
G1 X139.214 Y83.506 E0.01215
G1 X139.595 Y83.362 E0.01215
G1 X140.000 Y83.312 E0.01215
G1 X140.405 Y83.362 E0.01215
G1 X140.786 Y83.506 E0.01215
G1 X141.122 Y83.738 E0.01215
G1 X141.393 Y84.043 E0.01215
G1 X141.582 Y84.405 E0.01215
G1 X141.680 Y84.801 E0.01215
G1 X141.680 Y85.209 E0.01215
G1 X141.582 Y85.605 E0.01215
G1 X141.393 Y85.966 E0.01215
G1 X141.122 Y86.271 E0.01215
G1 X140.786 Y86.503 E0.01215
G1 X140.405 Y86.648 E0.01215
G1 X140.000 Y86.697 E0.01215
G1 X139.595 Y86.648 E0.01215
G1 X139.214 Y86.503 E0.01215
G1 X138.878 Y86.271 E0.01215
G1 X138.607 Y85.966 E0.01215
G1 X138.418 Y85.605 E0.01215
G1 X138.335 Y85.267 E0.01036
G1 X138.701 Y85.177 F18000.000
;TYPE:External perimeter
G1 F2400.000
G1 X138.697 Y84.846 E0.00983
G1 X138.773 Y84.539 E0.00942
G1 X138.920 Y84.259 E0.00942
G1 X139.130 Y84.022 E0.00942
G1 X139.390 Y83.843 E0.00942
G1 X139.686 Y83.730 E0.00942
G1 X140.000 Y83.692 E0.00942
G1 X140.314 Y83.730 E0.00942
G1 X140.610 Y83.843 E0.00942
G1 X140.870 Y84.022 E0.00942
G1 X141.080 Y84.259 E0.00942
G1 X141.227 Y84.539 E0.00942
G1 X141.303 Y84.846 E0.00942
G1 X141.303 Y85.163 E0.00942
G1 X141.227 Y85.470 E0.00942
G1 X141.080 Y85.750 E0.00942
G1 X140.870 Y85.987 E0.00942
G1 X140.610 Y86.167 E0.00942
G1 X140.314 Y86.279 E0.00942
G1 X140.000 Y86.317 E0.00942
G1 X139.686 Y86.279 E0.00942
G1 X139.390 Y86.167 E0.00942
G1 X139.130 Y85.987 E0.00942
G1 X138.920 Y85.750 E0.00942
G1 X138.773 Y85.470 E0.00942
G1 X138.715 Y85.235 E0.00721
G1 X138.396 Y85.049 F18000.000
G1 E-3.50000 F3600.000
;WIPE_START
G1 F14400.000
G1 X138.697 Y84.846 E-0.09234
G1 X138.773 Y84.539 E-0.07513
G1 X138.920 Y84.259 E-0.07513
G1 X139.130 Y84.022 E-0.07513
G1 X139.390 Y83.843 E-0.07514
G1 X139.686 Y83.730 E-0.07513
G1 X140.000 Y83.692 E-0.07513
G1 X140.314 Y83.730 E-0.07513
G1 X140.610 Y83.843 E-0.07513
G1 X140.870 Y84.022 E-0.07513
G1 X141.080 Y84.259 E-0.07513
G1 X141.227 Y84.539 E-0.07513
G1 X141.303 Y84.846 E-0.07513
G1 X141.303 Y85.163 E-0.07514
G1 X141.227 Y85.470 E-0.07513
G1 X141.080 Y85.750 E-0.07513
G1 X140.870 Y85.987 E-0.07513
G1 X140.610 Y86.167 E-0.07514
G1 X140.392 Y86.249 E-0.05537
;WIPE_END
G1 E-0.07500 F3600.000
G1 X145.214 Y97.506 F18000.000
G1 E5.00000 F2400.000
;TYPE:Perimeter
G1 X145.595 Y97.362 E0.01215
G1 X146.000 Y97.312 E0.01215
G1 X146.405 Y97.362 E0.01215
G1 X146.786 Y97.506 E0.01215
G1 X147.122 Y97.738 E0.01215
G1 X147.393 Y98.043 E0.01215
G1 X147.582 Y98.405 E0.01215
G1 X147.680 Y98.801 E0.01215
G1 X147.680 Y99.209 E0.01215
G1 X147.582 Y99.605 E0.01215
G1 X147.393 Y99.966 E0.01215
G1 X147.122 Y100.271 E0.01215
G1 X146.786 Y100.503 E0.01215
G1 X146.405 Y100.648 E0.01215
G1 X146.000 Y100.697 E0.01215
G1 X145.595 Y100.648 E0.01215
G1 X145.214 Y100.503 E0.01215
G1 X144.878 Y100.271 E0.01215
G1 X144.607 Y99.966 E0.01215
G1 X144.418 Y99.605 E0.01215
G1 X144.320 Y99.209 E0.01215
G1 X144.320 Y98.801 E0.01215
G1 X144.418 Y98.405 E0.01215
G1 X144.607 Y98.043 E0.01215
G1 X144.878 Y97.738 E0.01215
G1 X145.164 Y97.540 E0.01036
G1 X145.378 Y97.851 F18000.000
;TYPE:External perimeter
G1 F2400.000
G1 X145.686 Y97.730 E0.00983
G1 X146.000 Y97.692 E0.00942
G1 X146.314 Y97.730 E0.00942
G1 X146.610 Y97.843 E0.00942
G1 X146.870 Y98.022 E0.00942
G1 X147.080 Y98.259 E0.00942
G1 X147.227 Y98.539 E0.00942
G1 X147.303 Y98.846 E0.00942
G1 X147.303 Y99.163 E0.00942
G1 X147.227 Y99.470 E0.00942
G1 X147.080 Y99.750 E0.00942
G1 X146.870 Y99.987 E0.00942
G1 X146.610 Y100.167 E0.00942
G1 X146.314 Y100.279 E0.00942
G1 X146.000 Y100.317 E0.00942
G1 X145.686 Y100.279 E0.00942
G1 X145.390 Y100.167 E0.00942
G1 X145.130 Y99.987 E0.00942
G1 X144.920 Y99.750 E0.00942
G1 X144.773 Y99.470 E0.00942
G1 X144.697 Y99.163 E0.00942
G1 X144.697 Y98.846 E0.00942
G1 X144.773 Y98.539 E0.00942
G1 X144.920 Y98.259 E0.00942
G1 X145.130 Y98.022 E0.00942
G1 X145.329 Y97.885 E0.00721
G1 X145.389 Y97.521 F18000.000
G1 E-3.50000 F3600.000
;WIPE_START
G1 F14400.000
G1 X145.686 Y97.730 E-0.09234
G1 X146.000 Y97.692 E-0.07514
G1 X146.314 Y97.730 E-0.07514
G1 X146.610 Y97.843 E-0.07513
G1 X146.870 Y98.022 E-0.07513
G1 X147.080 Y98.259 E-0.07514
G1 X147.227 Y98.539 E-0.07513
G1 X147.303 Y98.846 E-0.07513
G1 X147.303 Y99.163 E-0.07514
G1 X147.227 Y99.470 E-0.07513
G1 X147.080 Y99.750 E-0.07513
G1 X146.870 Y99.987 E-0.07514
G1 X146.610 Y100.167 E-0.07514
G1 X146.314 Y100.279 E-0.07513
G1 X146.000 Y100.317 E-0.07514
G1 X145.686 Y100.279 E-0.07514
G1 X145.390 Y100.167 E-0.07513
G1 X145.130 Y99.987 E-0.07513
G1 X144.975 Y99.812 E-0.05537
;WIPE_END
G1 E-0.07500 F3600.000
G1 X148.413 Y101.491 F18000.000
G1 E5.00000 F2400.000
;TYPE:Perimeter
G1 X148.402 Y101.588 E0.00292
G1 X71.098 Y101.588 E2.30259
G1 X71.098 Y82.421 E0.57093
G1 X148.402 Y82.421 E2.30259
G1 X148.413 Y101.431 E0.56624
G1 X148.737 Y101.965 F18000.000
;TYPE:External perimeter
G1 F2400.000
G1 X70.763 Y101.965 E2.32259
G1 X70.710 Y101.513 E0.01357
G1 X70.710 Y82.496 E0.56644
G1 X70.763 Y82.044 E0.01357
G1 X148.737 Y82.044 E2.32259
G1 X148.790 Y82.496 E0.01357
G1 X148.790 Y101.513 E0.56644
G1 X148.744 Y101.906 E0.01178
G1 X148.391 Y101.765 F18000.000
G1 E-3.50000 F3600.000
;WIPE_START
G1 F14400.000
G1 X142.744 Y101.910 E-1.42500
;WIPE_END
G1 E-0.07500 F3600.000
G1 X148.299 Y83.297 F18000.000
G1 E5.00000 F2400.000
;TYPE:Solid infill
;WIDTH:0.420454
G1 X147.706 Y82.704 E0.02501
G1 X147.172 Y82.704 E0.01592
G1 X148.129 Y83.661 E0.04037
G1 X148.129 Y84.194 E0.01591
G1 X146.638 Y82.704 E0.06287
G1 X146.105 Y82.704 E0.01592
G1 X148.129 Y84.728 E0.08537
G1 X148.128 Y85.262 E0.01591
G1 X145.571 Y82.704 E0.10788
G1 X145.037 Y82.704 E0.01592
G1 X148.128 Y85.795 E0.13038
G1 X148.128 Y86.329 E0.01591
G1 X144.503 Y82.704 E0.15289
G1 X143.969 Y82.704 E0.01592
G1 X148.128 Y86.862 E0.17539
G1 X148.127 Y87.396 E0.01591
G1 X143.435 Y82.704 E0.19790
G1 X142.901 Y82.704 E0.01592
G1 X148.127 Y87.930 E0.22040
G1 X148.127 Y88.463 E0.01591
G1 X142.367 Y82.704 E0.24291
G1 X141.833 Y82.704 E0.01592
G1 X148.126 Y88.997 E0.26541
G1 X148.126 Y89.530 E0.01591
G1 X141.299 Y82.704 E0.28792
G1 X140.765 Y82.704 E0.01592
G1 X148.126 Y90.064 E0.31042
G1 X148.125 Y90.598 E0.01591
G1 X141.854 Y84.326 E0.26449
G1 X141.627 Y83.882 E0.01490
G1 X141.311 Y83.525 E0.01421
G1 X140.919 Y83.254 E0.01421
G1 X140.698 Y83.170 E0.00704
G1 X140.062 Y82.534 E0.02683
G1 X140.219 Y83.225 F18000.000
G1 F2400.000
G1 X139.698 Y82.704 E0.02199
G1 X139.164 Y82.704 E0.01592
G1 X139.543 Y83.083 E0.01600
G1 X139.153 Y83.227 E0.01240
G1 X138.630 Y82.704 E0.02206
G1 X138.096 Y82.704 E0.01592
G1 X138.824 Y83.432 E0.03070
G1 X138.689 Y83.525 E0.00488
G1 X138.545 Y83.687 E0.00647
G1 X137.562 Y82.704 E0.04147
G1 X137.028 Y82.704 E0.01592
G1 X138.315 Y83.991 E0.05430
G1 X138.140 Y84.350 E0.01190
G1 X136.494 Y82.704 E0.06942
G1 X135.960 Y82.704 E0.01592
G1 X138.207 Y84.951 E0.09477
G1 E-3.50000 F3600.000
;WIPE_START
G1 F14400.000
G1 X135.960 Y82.704 E-0.75469
G1 X136.494 Y82.704 E-0.12680
G1 X138.112 Y84.322 E-0.54350
;WIPE_END
G1 E-0.07500 F3600.000
G1 X141.793 Y84.799 F18000.000
G1 E5.00000 F2400.000
G1 X148.125 Y91.131 E0.26706
G1 X148.125 Y91.665 E0.01591
G1 X141.911 Y85.451 E0.26205
G1 X141.849 Y85.706 E0.00781
G1 X141.774 Y85.848 E0.00479
G1 X148.124 Y92.198 E0.26783
G1 X148.124 Y92.732 E0.01591
G1 X141.577 Y86.185 E0.27614
G1 X141.326 Y86.468 E0.01128
G1 X148.124 Y93.266 E0.28670
G1 X148.123 Y93.799 E0.01591
G1 X141.014 Y86.690 E0.29985
G1 X140.919 Y86.755 E0.00344
G1 X140.648 Y86.858 E0.00863
G1 X148.123 Y94.333 E0.31526
G1 X148.123 Y94.866 E0.01591
G1 X140.060 Y86.803 E0.34006
G1 E-3.50000 F3600.000
;WIPE_START
G1 F14400.000
G1 X144.302 Y91.046 E-1.42500
;WIPE_END
G1 E-0.07500 F3600.000
G1 X135.257 Y82.534 F18000.000
G1 E5.00000 F2400.000
G1 X138.061 Y85.338 E0.11828
G1 X138.151 Y85.706 E0.01128
G1 X138.373 Y86.128 E0.01421
G1 X138.689 Y86.484 E0.01421
G1 X139.081 Y86.755 E0.01421
G1 X139.527 Y86.924 E0.01421
G1 X139.663 Y86.941 E0.00409
G1 X148.122 Y95.400 E0.35677
G1 X148.122 Y95.934 E0.01591
G1 X134.892 Y82.704 E0.55797
G1 X134.358 Y82.704 E0.01592
G1 X148.122 Y96.467 E0.58048
G1 X148.121 Y97.001 E0.01591
G1 X133.825 Y82.704 E0.60298
G1 X133.291 Y82.704 E0.01592
G1 X148.121 Y97.534 E0.62548
G1 X148.121 Y98.068 E0.01591
G1 X132.757 Y82.704 E0.64799
G1 X132.223 Y82.704 E0.01592
G1 X146.684 Y97.165 E0.60991
G1 X146.919 Y97.254 E0.00749
G1 X147.311 Y97.525 E0.01421
G1 X147.627 Y97.882 E0.01421
G1 X147.857 Y98.338 E0.01524
G1 X148.290 Y98.771 E0.01827
G1 X147.793 Y98.808 F18000.000
G1 F2400.000
G1 X148.120 Y99.135 E0.01380
G1 X148.120 Y99.669 E0.01591
G1 X147.909 Y99.458 E0.00887
G1 X147.849 Y99.706 E0.00760
G1 X147.771 Y99.854 E0.00498
G1 X148.120 Y100.202 E0.01471
