; generated by PrusaSlicer 2.3.0+linux-x64 on 2021-04-18 at 19:25:17 UTC

; 

; external perimeters extrusion width = 0.45mm
; perimeters extrusion width = 0.45mm
; infill extrusion width = 0.45mm
; solid infill extrusion width = 0.45mm
; top infill extrusion width = 0.40mm
; first layer extrusion width = 0.42mm

M201 X500 Y500 Z100 E5000 ; sets maximum accelerations, mm/sec^2
M203 X500 Y500 Z10 E60 ; sets maximum feedrates, mm/sec
M204 P500 R1000 T500 ; sets acceleration (P, T) and retract acceleration (R), mm/sec^2
M205 X8.00 Y8.00 Z0.40 E5.00 ; sets the jerk limits, mm/sec
M205 S0 T0 ; sets the minimum extruding and travel feed rate, mm/sec
M107
;TYPE:Custom
G90 ; use absolute coordinates
M83 ; extruder relative mode
M104 S220 ; set extruder temp
M140 S60 ; set bed temp
M190 S60 ; wait for bed temp
M109 S220 ; wait for extruder temp
G28 ; home all
G29 ; Auto bed-level (BL-Touch)
G92 E0 ; Reset Extruder
G1 Z2 F240
G1 X2 Y10 F3000
G1 Z0.28 F240
G92 E0
G1 Y190 E15 F1500 ; intro line
G1 X2.3 F5000
G92 E0
G1 Y10 E15 F1200 ; intro line
G92 E0
G21 ; set units to millimeters
G90 ; use absolute coordinates
M83 ; use relative distances for extrusion
; Filament gcode
;LAYER_CHANGE
;Z:0.2
;HEIGHT:0.2
;BEFORE_LAYER_CHANGE
G92 E0
;0.2


G1 E-5.00000 F3600.000
G1 Z0.200 F18000.000
;AFTER_LAYER_CHANGE
;0.2
G1 X75.636 Y81.208
G1 E5.00000 F2400.000
;TYPE:Skirt
;WIDTH:0.42
G1 X76.261 Y80.193 E0.03553
G1 X76.965 Y79.458 E0.03032
G1 X77.352 Y79.150 E0.01472
G1 X78.349 Y78.577 E0.03425
G1 X79.329 Y78.252 E0.03078
G1 X80.450 Y78.123 E0.03361
G1 X139.504 Y78.123 E1.75900
G1 X140.656 Y78.249 E0.03451
G1 X141.640 Y78.573 E0.03089
G1 X142.642 Y79.146 E0.03436
G1 X143.032 Y79.455 E0.01484
G1 X143.734 Y80.186 E0.03020
G1 X144.354 Y81.188 E0.03508
G1 X144.737 Y82.281 E0.03451
G1 X144.873 Y83.367 E0.03259
G1 X144.876 Y136.576 E1.58493
G1 X144.741 Y137.704 E0.03383
G1 X144.359 Y138.802 E0.03462
G1 X143.737 Y139.810 E0.03530
G1 X143.035 Y140.542 E0.03020
G1 X142.648 Y140.850 E0.01472
G1 X141.651 Y141.423 E0.03425
G1 X140.671 Y141.748 E0.03077
G1 X139.550 Y141.877 E0.03361
G1 X80.481 Y141.877 E1.75945
G1 X79.311 Y141.744 E0.03507
G1 X78.208 Y141.364 E0.03474
G1 X77.193 Y140.739 E0.03553
G1 X76.458 Y140.035 E0.03032
G1 X76.150 Y139.648 E0.01472
G1 X75.577 Y138.651 E0.03425
G1 X75.252 Y137.671 E0.03078
G1 X75.124 Y136.557 E0.03338
G1 X75.123 Y83.481 E1.58096
G1 X75.256 Y82.311 E0.03507
G1 X75.616 Y81.265 E0.03295
G1 E-3.50000 F3600.000
;WIPE_START
G1 F14400.000
G1 X76.261 Y80.193 E-0.29718
G1 X76.965 Y79.458 E-0.24173
G1 X77.352 Y79.150 E-0.11739
G1 X78.349 Y78.577 E-0.27309
G1 X79.329 Y78.252 E-0.24538
G1 X80.376 Y78.132 E-0.25024
;WIPE_END
G1 E-0.07500 F3600.000
G1 X135.672 Y129.881 F18000.000
G1 E5.00000 F2400.000
;TYPE:Perimeter
G1 X136.113 Y129.490 E0.01754
G1 X136.634 Y129.217 E0.01754
G1 X137.206 Y129.076 E0.01754
G1 X137.794 Y129.076 E0.01754
G1 X138.366 Y129.217 E0.01754
G1 X138.887 Y129.490 E0.01754
G1 X139.328 Y129.881 E0.01754
G1 X139.662 Y130.365 E0.01754
G1 X139.871 Y130.916 E0.01754
G1 X139.937 Y131.458 E0.01629
G1 X139.937 Y134.542 E0.09184
G1 X139.871 Y135.084 E0.01629
G1 X139.662 Y135.635 E0.01754
G1 X139.328 Y136.119 E0.01754
G1 X138.887 Y136.510 E0.01754
G1 X138.393 Y136.769 E0.01664
G1 X137.798 Y136.924 E0.01830
G1 X137.206 Y136.924 E0.01765
G1 X136.634 Y136.783 E0.01754
G1 X136.113 Y136.510 E0.01754
G1 X135.672 Y136.119 E0.01754
G1 X135.338 Y135.635 E0.01754
G1 X135.129 Y135.084 E0.01754
G1 X135.063 Y134.542 E0.01629
G1 X135.063 Y131.458 E0.09184
G1 X135.129 Y130.916 E0.01629
G1 X135.338 Y130.365 E0.01754
G1 X135.638 Y129.930 E0.01575
G1 X135.948 Y130.144 F18000.000
;TYPE:External perimeter
G1 F2400.000
G1 X136.328 Y129.803 E0.01522
G1 X136.769 Y129.572 E0.01481
G1 X137.251 Y129.453 E0.01481
G1 X137.749 Y129.453 E0.01481
G1 X138.231 Y129.572 E0.01481
G1 X138.672 Y129.803 E0.01481
G1 X139.044 Y130.132 E0.01481
G1 X139.326 Y130.542 E0.01481
G1 X139.502 Y131.006 E0.01481
G1 X139.560 Y131.481 E0.01425
G1 X139.560 Y134.519 E0.09048
G1 X139.502 Y134.994 E0.01425
G1 X139.326 Y135.458 E0.01481
G1 X139.044 Y135.868 E0.01481
G1 X138.672 Y136.197 E0.01481
G1 X138.256 Y136.415 E0.01399
G1 X137.750 Y136.547 E0.01557
G1 X137.251 Y136.547 E0.01485
G1 X136.769 Y136.428 E0.01481
G1 X136.328 Y136.197 E0.01481
G1 X135.956 Y135.868 E0.01481
G1 X135.674 Y135.458 E0.01481
G1 X135.498 Y134.994 E0.01481
G1 X135.440 Y134.519 E0.01425
G1 X135.440 Y131.481 E0.09048
G1 X135.498 Y131.006 E0.01425
G1 X135.674 Y130.542 E0.01481
G1 X135.914 Y130.194 E0.01260
G1 X135.820 Y129.765 F18000.000
G1 E-3.50000 F3600.000
;WIPE_START
G1 F14400.000
G1 X136.328 Y129.803 E-0.13525
G1 X136.769 Y129.572 E-0.11808
G1 X137.251 Y129.453 E-0.11808
G1 X137.749 Y129.453 E-0.11807
G1 X138.231 Y129.572 E-0.11808
G1 X138.672 Y129.803 E-0.11808
G1 X139.044 Y130.132 E-0.11807
G1 X139.326 Y130.542 E-0.11808
G1 X139.502 Y131.006 E-0.11808
G1 X139.560 Y131.481 E-0.11359
G1 X139.560 Y132.456 E-0.23155
;WIPE_END
G1 E-0.07500 F3600.000
G1 X137.115 Y93.669 F18000.000
G1 E5.00000 F2400.000
;TYPE:Perimeter
G1 X136.368 Y93.485 E0.02292
G1 X135.687 Y93.127 E0.02292
G1 X135.111 Y92.617 E0.02292
G1 X134.674 Y91.983 E0.02292
G1 X134.401 Y91.264 E0.02292
G1 X134.308 Y90.500 E0.02292
G1 X134.401 Y89.736 E0.02292
G1 X134.674 Y89.017 E0.02292
G1 X135.111 Y88.383 E0.02292
G1 X135.687 Y87.873 E0.02292
G1 X136.368 Y87.515 E0.02292
G1 X137.115 Y87.331 E0.02292
G1 X137.885 Y87.331 E0.02292
G1 X138.632 Y87.515 E0.02292
G1 X139.313 Y87.873 E0.02292
G1 X139.889 Y88.383 E0.02292
G1 X140.326 Y89.017 E0.02292
G1 X140.599 Y89.736 E0.02292
G1 X140.692 Y90.500 E0.02292
G1 X140.599 Y91.264 E0.02292
G1 X140.326 Y91.983 E0.02292
G1 X139.889 Y92.617 E0.02292
G1 X139.313 Y93.127 E0.02292
G1 X138.632 Y93.485 E0.02292
G1 X137.885 Y93.669 E0.02292
G1 X137.175 Y93.669 E0.02113
G1 X137.175 Y93.292 F18000.000
;TYPE:External perimeter
G1 F2400.000
G1 X136.503 Y93.130 E0.02061
G1 X135.902 Y92.814 E0.02019
G1 X135.395 Y92.365 E0.02019
G1 X135.010 Y91.807 E0.02019
G1 X134.769 Y91.173 E0.02019
G1 X134.688 Y90.500 E0.02019
G1 X134.769 Y89.827 E0.02019
G1 X135.010 Y89.193 E0.02019
G1 X135.395 Y88.635 E0.02019
G1 X135.902 Y88.186 E0.02019
G1 X136.503 Y87.870 E0.02019
G1 X137.161 Y87.708 E0.02019
G1 X137.839 Y87.708 E0.02019
G1 X138.497 Y87.870 E0.02019
G1 X139.098 Y88.186 E0.02019
G1 X139.605 Y88.635 E0.02019
G1 X139.990 Y89.193 E0.02019
G1 X140.231 Y89.827 E0.02019
G1 X140.312 Y90.500 E0.02019
G1 X140.231 Y91.173 E0.02019
G1 X139.990 Y91.807 E0.02019
G1 X139.605 Y92.365 E0.02019
G1 X139.098 Y92.814 E0.02019
G1 X138.497 Y93.130 E0.02019
G1 X137.839 Y93.292 E0.02019
G1 X137.235 Y93.292 E0.01798
G1 X136.936 Y93.612 F18000.000
G1 E-3.50000 F3600.000
;WIPE_START
G1 F14400.000
G1 X136.503 Y93.130 E-0.17818
G1 X135.902 Y92.814 E-0.16102
G1 X135.395 Y92.365 E-0.16102
G1 X135.010 Y91.807 E-0.16102
G1 X134.769 Y91.173 E-0.16102
G1 X134.688 Y90.500 E-0.16102
G1 X134.769 Y89.827 E-0.16102
G1 X135.010 Y89.193 E-0.16102
G1 X135.296 Y88.778 E-0.11970
;WIPE_END
G1 E-0.07500 F3600.000
G1 X85.692 Y90.500 F18000.000
G1 E5.00000 F2400.000
;TYPE:Perimeter
G1 X85.599 Y91.264 E0.02292
G1 X85.326 Y91.983 E0.02292
G1 X84.889 Y92.617 E0.02292
G1 X84.313 Y93.127 E0.02292
G1 X83.632 Y93.485 E0.02292
G1 X82.885 Y93.669 E0.02292
G1 X82.115 Y93.669 E0.02292
G1 X81.368 Y93.485 E0.02292
G1 X80.687 Y93.127 E0.02292
G1 X80.111 Y92.617 E0.02292
G1 X79.674 Y91.983 E0.02292
G1 X79.401 Y91.264 E0.02292
G1 X79.308 Y90.500 E0.02292
G1 X79.401 Y89.736 E0.02292
G1 X79.674 Y89.017 E0.02292
G1 X80.111 Y88.383 E0.02292
G1 X80.687 Y87.873 E0.02292
G1 X81.368 Y87.515 E0.02292
G1 X82.115 Y87.331 E0.02292
G1 X82.885 Y87.331 E0.02292
G1 X83.632 Y87.515 E0.02292
G1 X84.313 Y87.873 E0.02292
G1 X84.889 Y88.383 E0.02292
G1 X85.326 Y89.017 E0.02292
G1 X85.599 Y89.736 E0.02292
G1 X85.685 Y90.440 E0.02113
G1 X85.311 Y90.486 F18000.000
;TYPE:External perimeter
G1 F2400.000
G1 X85.231 Y91.173 E0.02061
G1 X84.990 Y91.807 E0.02019
G1 X84.605 Y92.365 E0.02019
G1 X84.098 Y92.814 E0.02019
G1 X83.497 Y93.130 E0.02019
G1 X82.839 Y93.292 E0.02019
G1 X82.161 Y93.292 E0.02019
G1 X81.503 Y93.130 E0.02019
G1 X80.902 Y92.814 E0.02019
G1 X80.395 Y92.365 E0.02019
G1 X80.010 Y91.807 E0.02019
G1 X79.769 Y91.173 E0.02019
G1 X79.688 Y90.500 E0.02019
G1 X79.769 Y89.827 E0.02019
G1 X80.010 Y89.193 E0.02019
G1 X80.395 Y88.635 E0.02019
G1 X80.902 Y88.186 E0.02019
G1 X81.503 Y87.870 E0.02019
G1 X82.161 Y87.708 E0.02019
G1 X82.839 Y87.708 E0.02019
G1 X83.497 Y87.870 E0.02019
G1 X84.098 Y88.186 E0.02019
G1 X84.605 Y88.635 E0.02019
G1 X84.990 Y89.193 E0.02019
G1 X85.231 Y89.827 E0.02019
G1 X85.303 Y90.426 E0.01798
G1 X85.658 Y90.685 F18000.000
G1 E-3.50000 F3600.000
;WIPE_START
G1 F14400.000
G1 X85.231 Y91.173 E-0.17818
G1 X84.990 Y91.807 E-0.16102
G1 X84.605 Y92.365 E-0.16102
G1 X84.098 Y92.814 E-0.16102
G1 X83.497 Y93.130 E-0.16102
G1 X82.839 Y93.292 E-0.16102
G1 X82.161 Y93.292 E-0.16102
G1 X81.503 Y93.130 E-0.16102
G1 X81.056 Y92.895 E-0.11970
;WIPE_END
G1 E-0.07500 F3600.000
G1 X82.794 Y129.076 F18000.000
G1 E5.00000 F2400.000
;TYPE:Perimeter
G1 X83.366 Y129.217 E0.01754
G1 X83.887 Y129.490 E0.01754
G1 X84.328 Y129.881 E0.01754
G1 X84.662 Y130.365 E0.01754
G1 X84.871 Y130.916 E0.01754
G1 X84.937 Y131.458 E0.01629
G1 X84.937 Y134.542 E0.09184
G1 X84.871 Y135.084 E0.01629
G1 X84.662 Y135.635 E0.01754
G1 X84.328 Y136.119 E0.01754
G1 X83.887 Y136.510 E0.01754
G1 X83.393 Y136.769 E0.01664
G1 X82.798 Y136.924 E0.01830
G1 X82.206 Y136.924 E0.01765
G1 X81.634 Y136.783 E0.01754
G1 X81.113 Y136.510 E0.01754
G1 X80.672 Y136.119 E0.01754
G1 X80.338 Y135.635 E0.01754
G1 X80.129 Y135.084 E0.01754
G1 X80.063 Y134.542 E0.01629
G1 X80.063 Y131.458 E0.09184
G1 X80.129 Y130.916 E0.01629
G1 X80.338 Y130.365 E0.01754
G1 X80.672 Y129.881 E0.01754
G1 X81.113 Y129.490 E0.01754
G1 X81.634 Y129.217 E0.01754
G1 X82.206 Y129.076 E0.01754
G1 X82.734 Y129.076 E0.01575
G1 X82.734 Y129.453 F18000.000
;TYPE:External perimeter
G1 F2400.000
G1 X83.231 Y129.572 E0.01522
G1 X83.672 Y129.803 E0.01481
G1 X84.044 Y130.132 E0.01481
G1 X84.326 Y130.542 E0.01481
G1 X84.502 Y131.006 E0.01481
G1 X84.560 Y131.481 E0.01425
G1 X84.560 Y134.519 E0.09048
G1 X84.502 Y134.994 E0.01425
G1 X84.326 Y135.458 E0.01481
G1 X84.044 Y135.868 E0.01481
G1 X83.672 Y136.197 E0.01481
G1 X83.256 Y136.415 E0.01399
G1 X82.750 Y136.547 E0.01557
G1 X82.251 Y136.547 E0.01485
G1 X81.769 Y136.428 E0.01481
G1 X81.328 Y136.197 E0.01481
G1 X80.956 Y135.868 E0.01481
G1 X80.674 Y135.458 E0.01481
G1 X80.498 Y134.994 E0.01481
G1 X80.440 Y134.519 E0.01425
G1 X80.440 Y131.481 E0.09048
G1 X80.498 Y131.006 E0.01425
G1 X80.674 Y130.542 E0.01481
G1 X80.956 Y130.132 E0.01481
G1 X81.328 Y129.803 E0.01481
G1 X81.769 Y129.572 E0.01481
G1 X82.251 Y129.453 E0.01481
G1 X82.674 Y129.453 E0.01260
G1 X82.973 Y129.132 F18000.000
G1 E-3.50000 F3600.000
;WIPE_START
G1 F14400.000
G1 X83.231 Y129.572 E-0.13526
G1 X83.672 Y129.803 E-0.11808
G1 X84.044 Y130.132 E-0.11807
G1 X84.326 Y130.542 E-0.11808
G1 X84.502 Y131.006 E-0.11808
G1 X84.560 Y131.481 E-0.11359
G1 X84.560 Y134.445 E-0.70385
;WIPE_END
G1 E-0.07500 F3600.000
G1 X78.249 Y137.014 F18000.000
G1 E5.00000 F2400.000
;TYPE:Perimeter
G1 X78.187 Y136.461 E0.01655
G1 X78.187 Y83.539 E1.57639
G1 X78.249 Y82.986 E0.01655
G1 X78.420 Y82.498 E0.01540
G1 X78.695 Y82.061 E0.01540
G1 X79.061 Y81.695 E0.01540
G1 X79.498 Y81.420 E0.01540
G1 X79.986 Y81.249 E0.01540
G1 X80.539 Y81.187 E0.01655
G1 X139.478 Y81.189 E1.75561
G1 X140.014 Y81.249 E0.01606
G1 X140.502 Y81.420 E0.01540
G1 X140.939 Y81.695 E0.01540
G1 X141.305 Y82.061 E0.01540
G1 X141.580 Y82.498 E0.01540
G1 X141.751 Y82.986 E0.01540
G1 X141.813 Y83.539 E0.01655
G1 X141.813 Y136.461 E1.57639
G1 X141.751 Y137.014 E0.01656
G1 X141.580 Y137.502 E0.01540
G1 X141.305 Y137.939 E0.01540
G1 X140.939 Y138.305 E0.01540
G1 X140.502 Y138.580 E0.01540
G1 X140.014 Y138.751 E0.01540
G1 X139.461 Y138.813 E0.01656
G1 X80.539 Y138.813 E1.75511
G1 X79.986 Y138.751 E0.01655
G1 X79.498 Y138.580 E0.01540
G1 X79.061 Y138.305 E0.01540
G1 X78.695 Y137.939 E0.01540
G1 X78.420 Y137.502 E0.01540
G1 X78.269 Y137.070 E0.01361
G1 X77.879 Y137.098 F18000.000
;TYPE:External perimeter
G1 F2400.000
G1 X77.810 Y136.483 E0.01845
G1 X77.810 Y83.517 E1.57765
G1 X77.879 Y82.902 E0.01845
G1 X78.078 Y82.334 E0.01793
G1 X78.398 Y81.824 E0.01793
G1 X78.824 Y81.398 E0.01793
G1 X79.334 Y81.078 E0.01793
G1 X79.902 Y80.879 E0.01793
G1 X80.517 Y80.810 E0.01845
G1 X139.499 Y80.812 E1.75687
G1 X140.098 Y80.879 E0.01795
G1 X140.666 Y81.078 E0.01793
G1 X141.176 Y81.398 E0.01793
G1 X141.602 Y81.824 E0.01793
G1 X141.922 Y82.334 E0.01793
G1 X142.121 Y82.902 E0.01793
G1 X142.190 Y83.517 E0.01845
G1 X142.190 Y136.483 E1.57765
G1 X142.121 Y137.098 E0.01845
G1 X141.922 Y137.666 E0.01793
G1 X141.602 Y138.176 E0.01793
G1 X141.176 Y138.602 E0.01793
G1 X140.666 Y138.922 E0.01793
G1 X140.098 Y139.121 E0.01793
G1 X139.483 Y139.190 E0.01845
G1 X80.517 Y139.190 E1.75637
G1 X79.902 Y139.121 E0.01845
G1 X79.334 Y138.922 E0.01793
G1 X78.824 Y138.602 E0.01793
G1 X78.398 Y138.176 E0.01793
G1 X78.078 Y137.666 E0.01793
G1 X77.899 Y137.155 E0.01614
G1 X78.173 Y136.826 F18000.000
G1 E-3.50000 F3600.000
;WIPE_START
G1 F14400.000
G1 X77.810 Y136.483 E-0.16104
G1 X77.810 Y131.161 E-1.26396
;WIPE_END
G1 E-0.07500 F3600.000
G1 X140.320 Y81.476 F18000.000
G1 E5.00000 F2400.000
;TYPE:Solid infill
;WIDTH:0.42118
G1 X141.084 Y82.241 E0.03230
G1 X141.324 Y82.622 E0.01346
G1 X141.473 Y83.050 E0.01354
G1 X141.488 Y83.179 E0.00390
G1 X139.821 Y81.512 E0.07045
G1 X139.462 Y81.472 E0.01078
G1 X139.245 Y81.472 E0.00648
G1 X141.530 Y83.757 E0.09655
G1 X141.530 Y84.291 E0.01598
G1 X138.710 Y81.472 E0.11915
G1 X138.175 Y81.472 E0.01598
G1 X141.530 Y84.826 E0.14176
G1 X141.530 Y85.361 E0.01598
G1 X137.640 Y81.472 E0.16436
G1 X137.105 Y81.472 E0.01598
G1 X141.530 Y85.896 E0.18697
G1 X141.530 Y86.431 E0.01598
G1 X136.571 Y81.472 E0.20957
G1 X136.036 Y81.472 E0.01598
G1 X141.530 Y86.966 E0.23218
G1 X141.530 Y87.501 E0.01598
G1 X135.501 Y81.472 E0.25479
G1 X134.966 Y81.472 E0.01598
G1 X141.530 Y88.036 E0.27739
G1 X141.530 Y88.571 E0.01598
G1 X134.431 Y81.472 E0.30000
G1 X133.896 Y81.472 E0.01598
G1 X141.530 Y89.106 E0.32260
G1 X141.530 Y89.641 E0.01598
G1 X133.361 Y81.472 E0.34521
G1 X132.826 Y81.472 E0.01598
G1 X138.561 Y87.207 E0.24234
G1 X137.868 Y87.048 E0.02124
G1 X132.291 Y81.472 E0.23566
G1 X131.756 Y81.472 E0.01598
G1 X137.333 Y87.048 E0.23566
G1 X137.081 Y87.048 E0.00753
G1 X136.854 Y87.104 E0.00699
G1 X131.221 Y81.471 E0.23802
G1 X130.686 Y81.471 E0.01598
G1 X136.425 Y87.210 E0.24249
G1 X136.267 Y87.249 E0.00485
G1 X136.045 Y87.365 E0.00749
G1 X130.151 Y81.471 E0.24906
G1 X129.616 Y81.471 E0.01598
G1 X135.694 Y87.550 E0.25684
G1 X135.525 Y87.638 E0.00572
G1 X135.378 Y87.768 E0.00586
G1 X129.081 Y81.471 E0.26609
G1 X128.546 Y81.471 E0.01598
G1 X135.094 Y88.020 E0.27671
G1 X134.897 Y88.194 E0.00787
G1 X134.831 Y88.291 E0.00351
G1 X128.011 Y81.471 E0.28817
G1 X127.476 Y81.471 E0.01598
G1 X134.612 Y88.607 E0.30154
G1 X134.403 Y88.933 E0.01156
G1 X126.941 Y81.471 E0.31530
G1 X126.406 Y81.471 E0.01598
G1 X134.256 Y89.321 E0.33169
G1 X134.118 Y89.718 E0.01256
G1 X125.871 Y81.471 E0.34847
G1 X125.336 Y81.471 E0.01598
G1 X134.060 Y90.195 E0.36863
G1 X134.023 Y90.500 E0.00918
G1 X134.050 Y90.719 E0.00661
G1 X124.801 Y81.471 E0.39080
G1 X124.267 Y81.471 E0.01598
G1 X134.414 Y91.619 E0.42881
G1 E-3.50000 F3600.000
;WIPE_START
G1 F14400.000
G1 X130.172 Y87.376 E-1.42500
;WIPE_END
G1 E-0.07500 F3600.000
G1 X140.494 Y89.140 F18000.000
G1 E5.00000 F2400.000
G1 X141.530 Y90.176 E0.04377
G1 X141.530 Y90.711 E0.01598
G1 X140.930 Y90.110 E0.02537
G1 X140.977 Y90.500 E0.01173
G1 X140.956 Y90.672 E0.00517
G1 X141.530 Y91.246 E0.02425
G1 X141.530 Y91.781 E0.01598
G1 X140.898 Y91.149 E0.02670
G1 X140.876 Y91.332 E0.00552
G1 X140.785 Y91.571 E0.00763
G1 X141.530 Y92.316 E0.03147
G1 X141.530 Y92.851 E0.01598
G1 X140.638 Y91.959 E0.03768
G1 X140.579 Y92.116 E0.00502
G1 X140.449 Y92.304 E0.00684
G1 X141.530 Y93.385 E0.04569
G1 X141.530 Y93.920 E0.01598
G1 X140.230 Y92.621 E0.05493
