; generated by PrusaSlicer 2.3.0+linux-x64 on 2021-12-12 at 22:20:39 UTC

; 

; external perimeters extrusion width = 0.45mm
; perimeters extrusion width = 0.45mm
; infill extrusion width = 0.45mm
; solid infill extrusion width = 0.45mm
; top infill extrusion width = 0.40mm
; first layer extrusion width = 0.42mm

M201 X500 Y500 Z100 E5000 ; sets maximum accelerations, mm/sec^2
M203 X500 Y500 Z10 E60 ; sets maximum feedrates, mm/sec
M204 P500 R1000 T500 ; sets acceleration (P, T) and retract acceleration (R), mm/sec^2
M205 X8.00 Y8.00 Z0.40 E5.00 ; sets the jerk limits, mm/sec
M205 S0 T0 ; sets the minimum extruding and travel feed rate, mm/sec
M107
;TYPE:Custom
G90 ; use absolute coordinates
M83 ; extruder relative mode
M104 S220 ; set extruder temp
M140 S60 ; set bed temp
M190 S60 ; wait for bed temp
M109 S220 ; wait for extruder temp
G28 ; home all
G29 ; Auto bed-level (BL-Touch)
G92 E0 ; Reset Extruder
G1 Z2 F240
G1 X2 Y10 F3000
G1 Z0.28 F240
G92 E0
G1 Y190 E15 F1500 ; intro line
G1 X2.3 F5000
G92 E0
G1 Y10 E15 F1200 ; intro line
G92 E0
G21 ; set units to millimeters
G90 ; use absolute coordinates
M83 ; use relative distances for extrusion
; Filament gcode
;LAYER_CHANGE
;Z:0.2
;HEIGHT:0.2
;BEFORE_LAYER_CHANGE
G92 E0
;0.2


G1 E-5.00000 F3600.000
G1 Z0.200 F18000.000
;AFTER_LAYER_CHANGE
;0.2
G1 X84.725 Y77.337
G1 E5.00000 F2400.000
;TYPE:Skirt
;WIDTH:0.42
G1 X85.038 Y76.701 E0.02114
G1 X85.409 Y76.283 E0.01664
G1 X85.867 Y75.963 E0.01664
G1 X86.386 Y75.758 E0.01664
G1 X86.940 Y75.681 E0.01664
G1 X133.014 Y75.680 E1.37238
G1 X133.905 Y75.855 E0.02706
G1 X134.669 Y76.355 E0.02717
G1 X135.186 Y77.101 E0.02706
G1 X135.386 Y77.988 E0.02706
G1 X135.387 Y141.958 E1.90546
G1 X135.275 Y142.663 E0.02125
G1 X134.962 Y143.299 E0.02114
G1 X134.588 Y143.720 E0.01675
G1 X134.123 Y144.043 E0.01687
G1 X133.595 Y144.247 E0.01687
G1 X133.037 Y144.320 E0.01675
G1 X86.967 Y144.320 E1.37227
G1 X86.270 Y144.208 E0.02103
G1 X85.634 Y143.895 E0.02114
G1 X85.211 Y143.519 E0.01687
G1 X84.888 Y143.053 E0.01687
G1 X84.685 Y142.524 E0.01687
G1 X84.613 Y141.963 E0.01687
G1 X84.613 Y78.042 E1.90399
G1 X84.715 Y77.397 E0.01946
G1 E-3.50000 F3600.000
;WIPE_START
G1 F14400.000
G1 X85.038 Y76.701 E-0.18220
G1 X85.409 Y76.283 E-0.13267
G1 X85.867 Y75.963 E-0.13267
G1 X86.386 Y75.758 E-0.13267
G1 X86.940 Y75.681 E-0.13267
G1 X89.938 Y75.681 E-0.71211
;WIPE_END
G1 E-0.07500 F3600.000
G1 X89.940 Y81.007 F18000.000
G1 E5.00000 F2400.000
;TYPE:Perimeter
G1 X97.041 Y81.007 E0.21151
G1 X97.041 Y98.993 E0.53576
G1 X89.940 Y98.993 E0.21151
G1 X89.940 Y81.067 E0.53397
G1 X89.563 Y80.630 F18000.000
G1 F2400.000
G1 X97.418 Y80.630 E0.23398
G1 X97.418 Y99.370 E0.55822
G1 X89.563 Y99.370 E0.23398
G1 X89.563 Y80.690 E0.55643
G1 E-3.50000 F3600.000
;WIPE_START
G1 F14400.000
G1 X95.563 Y80.644 E-1.42500
;WIPE_END
G1 E-0.07500 F3600.000
G1 X97.795 Y80.862 F18000.000
G1 E5.00000 F2400.000
G1 X130.205 Y80.862 E0.96539
G1 X130.205 Y139.138 E1.73585
G1 X89.795 Y139.138 E1.20368
G1 X89.795 Y99.747 E1.17332
G1 X97.795 Y99.747 E0.23829
G1 X97.795 Y80.922 E0.56075
G1 X98.172 Y81.239 F18000.000
G1 F2400.000
G1 X129.828 Y81.239 E0.94293
G1 X129.828 Y138.761 E1.71339
G1 X90.172 Y138.761 E1.18122
G1 X90.172 Y100.124 E1.15085
G1 X98.172 Y100.124 E0.23829
G1 X98.172 Y81.299 E0.56075
G1 X98.549 Y81.616 F18000.000
G1 F2400.000
G1 X129.451 Y81.616 E0.92046
G1 X129.451 Y138.384 E1.69093
G1 X90.549 Y138.384 E1.15876
G1 X90.549 Y100.502 E1.12839
G1 X98.549 Y100.502 E0.23829
G1 X98.549 Y81.676 E0.56075
G1 X98.926 Y81.993 F18000.000
G1 F2400.000
G1 X129.074 Y81.993 E0.89800
G1 X129.074 Y138.007 E1.66846
G1 X90.926 Y138.007 E1.13629
G1 X90.926 Y100.879 E1.10593
G1 X98.926 Y100.879 E0.23829
G1 X98.926 Y82.053 E0.56075
G1 X99.303 Y82.370 F18000.000
G1 F2400.000
G1 X128.697 Y82.370 E0.87554
G1 X128.697 Y137.630 E1.64600
G1 X91.303 Y137.630 E1.11383
G1 X91.303 Y101.256 E1.08346
G1 X99.303 Y101.256 E0.23829
G1 X99.303 Y82.430 E0.56075
G1 X99.680 Y82.747 F18000.000
;TYPE:External perimeter
G1 F2400.000
G1 X128.320 Y82.747 E0.85307
G1 X128.320 Y137.253 E1.62354
G1 X91.680 Y137.253 E1.09136
G1 X91.680 Y101.633 E1.06100
G1 X99.680 Y101.633 E0.23829
G1 X99.680 Y82.807 E0.56075
G1 X99.734 Y82.351 F18000.000
G1 E-3.50000 F3600.000
;WIPE_START
G1 F14400.000
G1 X105.680 Y82.795 E-1.42500
;WIPE_END
G1 E-0.07500 F3600.000
G1 X89.186 Y80.253 F18000.000
G1 E5.00000 F2400.000
;TYPE:Perimeter
G1 X130.814 Y80.253 E1.23998
G1 X130.814 Y139.747 E1.77215
G1 X89.186 Y139.747 E1.23998
G1 X89.186 Y80.313 E1.77036
G1 X88.809 Y79.876 F18000.000
G1 F2400.000
G1 X131.191 Y79.876 E1.26244
G1 X131.191 Y140.124 E1.79461
G1 X88.809 Y140.124 E1.26244
G1 X88.809 Y79.936 E1.79282
G1 X88.432 Y79.498 F18000.000
G1 F2400.000
G1 X131.568 Y79.498 E1.28490
G1 X131.568 Y140.502 E1.81707
G1 X88.432 Y140.502 E1.28490
G1 X88.432 Y79.558 E1.81529
G1 X88.054 Y79.121 F18000.000
G1 F2400.000
G1 X131.946 Y79.121 E1.30737
G1 X131.946 Y140.879 E1.83954
G1 X88.054 Y140.879 E1.30737
G1 X88.054 Y79.181 E1.83775
G1 X87.677 Y78.744 F18000.000
G1 F2400.000
G1 X132.323 Y78.744 E1.32983
G1 X132.323 Y141.256 E1.86200
G1 X87.677 Y141.256 E1.32983
G1 X87.677 Y78.804 E1.86021
G1 X87.300 Y78.367 F18000.000
;TYPE:External perimeter
G1 F2400.000
G1 X132.700 Y78.367 E1.35229
G1 X132.700 Y141.633 E1.88447
G1 X87.300 Y141.633 E1.35229
G1 X87.300 Y78.427 E1.88268
G1 X87.680 Y78.492 F18000.000
G1 E-3.50000 F3600.000
;WIPE_START
G1 F14400.000
G1 X93.300 Y78.419 E-1.42500
;WIPE_END
G1 E-0.07500 F3600.000
G1 X96.928 Y81.888 F18000.000
G1 E5.00000 F2400.000
;TYPE:Solid infill
;WIDTH:0.422764
G1 X96.329 Y81.290 E0.02539
G1 X95.792 Y81.290 E0.01612
G1 X96.758 Y82.256 E0.04099
G1 X96.758 Y82.793 E0.01612
G1 X95.255 Y81.290 E0.06378
G1 X94.718 Y81.290 E0.01612
G1 X96.758 Y83.330 E0.08658
G1 X96.758 Y83.867 E0.01612
G1 X94.180 Y81.290 E0.10937
G1 X93.643 Y81.290 E0.01612
G1 X96.758 Y84.404 E0.13217
G1 X96.758 Y84.941 E0.01612
G1 X93.106 Y81.290 E0.15496
G1 X92.569 Y81.290 E0.01612
G1 X96.758 Y85.479 E0.17775
G1 X96.758 Y86.016 E0.01612
G1 X92.032 Y81.290 E0.20055
G1 X91.495 Y81.290 E0.01612
G1 X96.758 Y86.553 E0.22334
G1 X96.758 Y87.090 E0.01612
G1 X90.957 Y81.290 E0.24614
G1 X90.420 Y81.290 E0.01612
G1 X96.758 Y87.627 E0.26893
G1 X96.758 Y88.164 E0.01612
G1 X90.223 Y81.629 E0.27731
G1 X90.223 Y82.166 E0.01612
G1 X96.758 Y88.702 E0.27731
G1 X96.758 Y89.239 E0.01612
G1 X90.223 Y82.704 E0.27731
G1 X90.223 Y83.241 E0.01612
G1 X96.758 Y89.776 E0.27731
G1 X96.758 Y90.313 E0.01612
G1 X90.223 Y83.778 E0.27731
G1 X90.223 Y84.315 E0.01612
G1 X96.758 Y90.850 E0.27731
G1 X96.758 Y91.388 E0.01612
G1 X90.223 Y84.852 E0.27731
G1 X90.223 Y85.389 E0.01612
G1 X96.758 Y91.925 E0.27731
G1 X96.758 Y92.462 E0.01612
G1 X90.223 Y85.927 E0.27731
G1 X90.223 Y86.464 E0.01612
G1 X96.758 Y92.999 E0.27731
G1 X96.758 Y93.536 E0.01612
G1 X90.223 Y87.001 E0.27731
G1 X90.223 Y87.538 E0.01612
G1 X96.758 Y94.073 E0.27731
G1 X96.758 Y94.611 E0.01612
G1 X90.223 Y88.075 E0.27731
G1 X90.223 Y88.613 E0.01612
G1 X96.758 Y95.148 E0.27731
G1 X96.758 Y95.685 E0.01612
G1 X90.223 Y89.150 E0.27731
G1 X90.223 Y89.687 E0.01612
G1 X96.758 Y96.222 E0.27731
G1 X96.758 Y96.759 E0.01612
G1 X90.223 Y90.224 E0.27731
G1 X90.223 Y90.761 E0.01612
G1 X96.758 Y97.297 E0.27731
G1 X96.758 Y97.834 E0.01612
G1 X90.223 Y91.298 E0.27731
G1 X90.223 Y91.836 E0.01612
G1 X96.758 Y98.371 E0.27731
G1 X96.758 Y98.710 E0.01019
G1 X96.560 Y98.710 E0.00593
G1 X90.223 Y92.373 E0.26893
G1 X90.223 Y92.910 E0.01612
G1 X96.023 Y98.710 E0.24613
G1 X95.486 Y98.710 E0.01612
G1 X90.223 Y93.447 E0.22334
G1 X90.223 Y93.984 E0.01612
G1 X94.949 Y98.710 E0.20054
G1 X94.412 Y98.710 E0.01612
G1 X90.223 Y94.522 E0.17775
G1 X90.223 Y95.059 E0.01612
G1 X93.874 Y98.710 E0.15496
G1 X93.337 Y98.710 E0.01612
G1 X90.223 Y95.596 E0.13216
G1 X90.223 Y96.133 E0.01612
G1 X92.800 Y98.710 E0.10937
G1 X92.263 Y98.710 E0.01612
G1 X90.223 Y96.670 E0.08657
G1 X90.223 Y97.207 E0.01612
G1 X91.726 Y98.710 E0.06378
G1 X91.188 Y98.710 E0.01612
G1 X90.223 Y97.745 E0.04098
G1 X90.223 Y98.282 E0.01612
G1 X90.821 Y98.880 E0.02539
G1 X89.490 Y99.559 F18000.000
;TYPE:Gap fill
;WIDTH:0.275052
G1 F2400.000
G1 X89.490 Y139.327 E0.72921
G1 X89.510 Y139.423 E0.00180
G1 X89.606 Y139.443 E0.00180
G1 X130.394 Y139.443 E0.74791
G1 X130.490 Y139.423 E0.00180
G1 X130.510 Y139.327 E0.00180
G1 X130.510 Y80.673 E1.07551
G1 X130.490 Y80.577 E0.00180
G1 X130.394 Y80.557 E0.00180
G1 X97.606 Y80.557 E0.60121
;LAYER_CHANGE
;Z:0.45
;HEIGHT:0.25
;BEFORE_LAYER_CHANGE
G92 E0
;0.45


G1 E-3.50000 F3600.000
;WIPE_START
G1 F14400.000
G1 X103.606 Y80.557 E-1.42500
;WIPE_END
G1 E-0.07500 F3600.000
G1 Z0.450 F18000.000
;AFTER_LAYER_CHANGE
;0.45
G1 X133.905 Y75.855
G1 E5.00000 F2400.000
;TYPE:Skirt
;WIDTH:0.42
G1 X134.669 Y76.355 E0.03300
G1 X135.186 Y77.101 E0.03287
G1 X135.386 Y77.988 E0.03287
G1 X135.387 Y141.958 E2.31405
G1 X135.275 Y142.663 E0.02581
G1 X134.962 Y143.299 E0.02567
G1 X134.588 Y143.720 E0.02034
G1 X134.123 Y144.043 E0.02048
G1 X133.595 Y144.247 E0.02048
G1 X133.037 Y144.320 E0.02034
G1 X86.967 Y144.320 E1.66653
G1 X86.270 Y144.208 E0.02553
G1 X85.634 Y143.895 E0.02567
G1 X85.211 Y143.519 E0.02048
G1 X84.888 Y143.053 E0.02048
G1 X84.685 Y142.524 E0.02048
G1 X84.613 Y141.963 E0.02048
G1 X84.613 Y78.042 E2.31226
G1 X84.725 Y77.337 E0.02581
G1 X85.038 Y76.701 E0.02567
G1 X85.409 Y76.283 E0.02021
G1 X85.867 Y75.963 E0.02021
G1 X86.386 Y75.758 E0.02021
G1 X86.940 Y75.681 E0.02021
G1 X133.014 Y75.680 E1.66666
G1 X133.846 Y75.844 E0.03069
G1 E-3.50000 F3600.000
;WIPE_START
G1 F14400.000
G1 X134.669 Y76.355 E-0.22993
G1 X135.186 Y77.101 E-0.21578
G1 X135.386 Y77.988 E-0.21578
G1 X135.386 Y81.202 E-0.76351
;WIPE_END
G1 E-0.07500 F3600.000
G1 X96.991 Y81.057 F18000.000
G1 E5.00000 F2400.000
;TYPE:Perimeter
;WIDTH:0.45
G1 F4800.000
G1 X96.991 Y98.943 E0.70001
G1 X89.990 Y98.943 E0.27400
G1 X89.990 Y81.057 E0.70001
G1 X96.931 Y81.057 E0.27165
G1 X97.387 Y80.660 F18000.000
G1 F4800.000
G1 X97.387 Y99.340 E0.73104
G1 X89.593 Y99.340 E0.30502
G1 X89.593 Y80.660 E0.73104
G1 X97.327 Y80.660 E0.30267
G1 X97.784 Y80.850 F18000.000
G1 F4800.000
G1 X130.216 Y80.850 E1.26929
G1 X130.216 Y139.150 E2.28159
G1 X89.784 Y139.150 E1.58238
G1 X89.784 Y99.736 E1.54248
G1 X97.784 Y99.736 E0.31309
G1 X97.784 Y80.910 E0.73676
G1 X98.180 Y81.247 F18000.000
G1 F4800.000
G1 X129.820 Y81.247 E1.23827
G1 X129.820 Y138.753 E2.25057
G1 X90.180 Y138.753 E1.55136
G1 X90.180 Y100.132 E1.51146
G1 X98.180 Y100.132 E0.31309
G1 X98.180 Y81.307 E0.73676
G1 X98.576 Y81.643 F18000.000
G1 F4800.000
G1 X129.424 Y81.643 E1.20725
G1 X129.424 Y138.357 E2.21954
G1 X90.576 Y138.357 E1.52034
G1 X90.576 Y100.529 E1.48044
G1 X98.576 Y100.529 E0.31309
G1 X98.576 Y81.703 E0.73676
G1 X98.973 Y82.040 F18000.000
G1 F4800.000
G1 X129.027 Y82.040 E1.17623
G1 X129.027 Y137.960 E2.18852
G1 X90.973 Y137.960 E1.48931
G1 X90.973 Y100.925 E1.44942
G1 X98.973 Y100.925 E0.31309
G1 X98.973 Y82.100 E0.73676
G1 X99.369 Y82.436 F18000.000
G1 F4800.000
G1 X128.631 Y82.436 E1.14520
G1 X128.631 Y137.564 E2.15750
G1 X91.369 Y137.564 E1.45829
G1 X91.369 Y101.321 E1.41839
G1 X99.369 Y101.321 E0.31309
G1 X99.369 Y82.496 E0.73676
G1 X99.765 Y82.832 F18000.000
;TYPE:External perimeter
G1 F3600.000
G1 X128.235 Y82.832 E1.11418
G1 X128.235 Y137.168 E2.12648
G1 X91.765 Y137.168 E1.42727
G1 X91.765 Y101.718 E1.38737
G1 X99.765 Y101.718 E0.31309
G1 X99.765 Y82.892 E0.73676
G1 X99.819 Y82.436 F18000.000
G1 E-3.50000 F3600.000
;WIPE_START
G1 F14400.000
G1 X105.765 Y82.880 E-1.42500
;WIPE_END
G1 E-0.07500 F3600.000
G1 X89.197 Y80.264 F18000.000
G1 E5.00000 F2400.000
;TYPE:Perimeter
G1 F4800.000
G1 X130.803 Y80.264 E1.62829
G1 X130.803 Y139.736 E2.32750
G1 X89.197 Y139.736 E1.62829
G1 X89.197 Y80.324 E2.32515
G1 X88.801 Y79.868 F18000.000
G1 F4800.000
G1 X131.199 Y79.868 E1.65931
G1 X131.199 Y140.132 E2.35852
G1 X88.801 Y140.132 E1.65931
G1 X88.801 Y79.928 E2.35617
G1 X88.404 Y79.471 F18000.000
G1 F4800.000
G1 X131.596 Y79.471 E1.69034
G1 X131.596 Y140.529 E2.38954
G1 X88.404 Y140.529 E1.69034
G1 X88.404 Y79.531 E2.38720
G1 X88.008 Y79.075 F18000.000
G1 F4800.000
G1 X131.992 Y79.075 E1.72136
G1 X131.992 Y140.925 E2.42057
G1 X88.008 Y140.925 E1.72136
G1 X88.008 Y79.135 E2.41822
G1 X87.612 Y78.679 F18000.000
G1 F4800.000
G1 X132.388 Y78.679 E1.75238
G1 X132.388 Y141.321 E2.45159
G1 X87.612 Y141.321 E1.75238
G1 X87.612 Y78.739 E2.44924
G1 X87.215 Y78.282 F18000.000
;TYPE:External perimeter
G1 F3600.000
G1 X132.785 Y78.282 E1.78340
G1 X132.785 Y141.718 E2.48261
G1 X87.215 Y141.718 E1.78340
G1 X87.215 Y78.342 E2.48026
G1 X87.595 Y78.406 F18000.000
G1 E-3.50000 F3600.000
;WIPE_START
G1 F14400.000
G1 X93.215 Y78.334 E-1.42500
;WIPE_END
G1 E-0.07500 F3600.000
G1 X90.923 Y81.176 F18000.000
G1 E5.00000 F2400.000
;TYPE:Solid infill
;WIDTH:0.456396
G1 F3600.000
G1 X90.287 Y81.812 E0.03579
G1 X90.287 Y82.381 E0.02265
G1 X91.314 Y81.354 E0.05779
G1 X91.884 Y81.354 E0.02265
G1 X90.287 Y82.951 E0.08982
G1 X90.287 Y83.521 E0.02265
G1 X92.454 Y81.354 E0.12185
G1 X93.023 Y81.354 E0.02265
G1 X90.287 Y84.090 E0.15388
G1 X90.287 Y84.660 E0.02265
G1 X93.593 Y81.354 E0.18592
G1 X94.162 Y81.354 E0.02265
G1 X90.287 Y85.229 E0.21795
G1 X90.287 Y85.799 E0.02265
G1 X94.732 Y81.354 E0.24998
G1 X95.301 Y81.354 E0.02265
G1 X90.287 Y86.368 E0.28201
G1 X90.287 Y86.938 E0.02265
G1 X95.871 Y81.354 E0.31405
G1 X96.441 Y81.354 E0.02265
G1 X90.287 Y87.508 E0.34608
G1 X90.287 Y88.077 E0.02265
G1 X96.694 Y81.671 E0.36031
G1 X96.694 Y82.240 E0.02265
G1 X90.287 Y88.647 E0.36031
G1 X90.287 Y89.216 E0.02265
G1 X96.694 Y82.810 E0.36031
G1 X96.694 Y83.379 E0.02265
G1 X90.287 Y89.786 E0.36031
G1 X90.287 Y90.355 E0.02265
G1 X96.694 Y83.949 E0.36031
G1 X96.694 Y84.518 E0.02265
G1 X90.287 Y90.925 E0.36031
G1 X90.287 Y91.495 E0.02265
G1 X96.694 Y85.088 E0.36031
G1 X96.694 Y85.657 E0.02265
G1 X90.287 Y92.064 E0.36031
G1 X90.287 Y92.634 E0.02265
G1 X96.694 Y86.227 E0.36031
G1 X96.694 Y86.797 E0.02265
G1 X90.287 Y93.203 E0.36031
G1 X90.287 Y93.773 E0.02265
G1 X96.694 Y87.366 E0.36031
G1 X96.694 Y87.936 E0.02265
G1 X90.287 Y94.342 E0.36031
G1 X90.287 Y94.912 E0.02265
G1 X96.694 Y88.505 E0.36031
G1 X96.694 Y89.075 E0.02265
G1 X90.287 Y95.481 E0.36031
G1 X90.287 Y96.051 E0.02265
G1 X96.694 Y89.644 E0.36031
G1 X96.694 Y90.214 E0.02265
G1 X90.287 Y96.621 E0.36031
G1 X90.287 Y97.190 E0.02265
G1 X96.694 Y90.784 E0.36031
G1 X96.694 Y91.353 E0.02265
G1 X90.287 Y97.760 E0.36031
G1 X90.287 Y98.329 E0.02265
G1 X96.694 Y91.923 E0.36031
G1 X96.694 Y92.492 E0.02265
G1 X90.540 Y98.646 E0.34609
G1 X91.109 Y98.646 E0.02265
G1 X96.694 Y93.062 E0.31405
G1 X96.694 Y93.631 E0.02265
G1 X91.679 Y98.646 E0.28202
G1 X92.249 Y98.646 E0.02265
G1 X96.694 Y94.201 E0.24999
G1 X96.694 Y94.771 E0.02265
G1 X92.818 Y98.646 E0.21796
G1 X93.388 Y98.646 E0.02265
G1 X96.694 Y95.340 E0.18592
G1 X96.694 Y95.910 E0.02265
G1 X93.957 Y98.646 E0.15389
G1 X94.527 Y98.646 E0.02265
G1 X96.694 Y96.479 E0.12186
G1 X96.694 Y97.049 E0.02265
G1 X95.096 Y98.646 E0.08983
G1 X95.666 Y98.646 E0.02265
G1 X96.694 Y97.618 E0.05779
G1 X96.694 Y98.188 E0.02265
G1 X96.057 Y98.824 E0.03579
G1 E-3.50000
;WIPE_START
G1 F14400.000
G1 X96.694 Y98.188 E-0.21376
G1 X96.694 Y97.618 E-0.13527
G1 X95.666 Y98.646 E-0.34516
G1 X95.096 Y98.646 E-0.13527
G1 X96.694 Y97.049 E-0.53647
G1 X96.694 Y96.800 E-0.05907
;WIPE_END
G1 E-0.07500 F3600.000
G1 X89.490 Y99.538 F18000.000
G1 E5.00000 F2400.000
;TYPE:Gap fill
;WIDTH:0.243812
G1 F1800.000
G1 X89.490 Y139.348 E0.74750
G1 X89.507 Y139.426 E0.00151
G1 X89.585 Y139.443 E0.00151
G1 X130.415 Y139.443 E0.76664
G1 X130.493 Y139.426 E0.00151
G1 X130.510 Y139.348 E0.00151
G1 X130.510 Y80.652 E1.10211
G1 X130.493 Y80.574 E0.00151
G1 X130.415 Y80.557 E0.00151
G1 X97.585 Y80.557 E0.61643
M106 S221.85
;LAYER_CHANGE
;Z:0.7
;HEIGHT:0.25
;BEFORE_LAYER_CHANGE
G92 E0
;0.7


G1 E-3.50000 F3600.000
;WIPE_START
G1 F14400.000
G1 X103.585 Y80.557 E-1.42500
;WIPE_END
G1 E-0.07500 F3600.000
G1 Z0.700 F18000.000
;AFTER_LAYER_CHANGE
;0.7
G1 X96.991 Y81.057
G1 E5.00000 F2400.000
;TYPE:Perimeter
;WIDTH:0.45
G1 F4800.000
G1 X96.991 Y98.943 E0.70001
G1 X89.990 Y98.943 E0.27400
